( Generated by Carbide Copper )
( Material Size )
( X= 152.400, Y= 101.600, Z= 1.580 )
()
G17
G21
G54
G90
M05
( Routing )
M03 S10000
G0  X-0.397 Y60.397
G0  Z3.000
G01 F50 Z0
G01 F50 Z-0.500
G01F50X-0.397 Y-0.397
X98.397 Y-0.397
X98.397 Y60.397
X-0.397 Y60.397
G0 Z3.000
M03 S10000
G0  X-0.397 Y60.397
G0  Z3.000
G01 F50 Z0
G01 F50 Z-1.0
G01F50X-0.397 Y-0.397
X98.397 Y-0.397
X98.397 Y60.397
X-0.397 Y60.397
G0 Z3.000
G00 Z3.000
M03 S10000
G0  X-0.397 Y60.397
G0  Z3.000
G01 F50 Z0
G01 F50 Z-1.5
G01F50X-0.397 Y-0.397
X98.397 Y-0.397
X98.397 Y60.397
X-0.397 Y60.397
G0 Z3.000
G00 Z3.000
M05
M30
%