( Generated by Carbide Copper )
( Material Size )
( X= 120.000, Y= 90.000, Z= 2.000 )
()
G17
G21
G54
G90
M05
(  )
( Contour )
M03 S10000
G0  X14.804 Y59.395
G0  Z3.000
G01 F400 Z0
G01 F400 Z-0.100
G01F400X14.804 Y59.370
X14.779 Y59.370
X14.779 Y59.344
X14.753 Y59.344
X14.753 Y59.319
X14.728 Y59.319
X14.728 Y58.385
X14.753 Y58.385
X14.753 Y58.309
X14.779 Y58.309
X14.779 Y58.232
X14.804 Y58.232
X14.804 Y58.182
X14.829 Y58.182
X14.829 Y58.105
X14.855 Y58.105
X14.855 Y58.055
X14.880 Y58.055
X14.880 Y57.978
X14.905 Y57.978
X14.905 Y57.928
X14.931 Y57.928
X14.931 Y57.851
X14.956 Y57.851
X14.956 Y57.775
X14.982 Y57.775
X14.982 Y57.724
X15.007 Y57.724
X15.007 Y57.648
X15.033 Y57.648
X15.033 Y57.597
X15.058 Y57.597
X15.058 Y57.521
X15.083 Y57.521
X15.083 Y57.470
X15.109 Y57.470
X15.109 Y57.394
X15.134 Y57.394
X15.134 Y57.318
X15.160 Y57.318
X15.160 Y57.267
X15.185 Y57.267
X15.185 Y57.191
X15.210 Y57.191
X15.210 Y57.140
X15.236 Y57.140
X15.236 Y57.064
X15.261 Y57.064
X15.261 Y57.013
X15.287 Y57.013
X15.287 Y56.937
X15.312 Y56.937
X15.312 Y56.861
X15.337 Y56.861
X15.337 Y56.810
X15.363 Y56.810
X15.363 Y56.785
X15.388 Y56.785
X15.388 Y56.759
X15.814 Y56.759
X15.814 Y56.785
X15.840 Y56.785
X15.840 Y56.810
X15.865 Y56.810
X15.865 Y56.861
X15.890 Y56.861
X15.890 Y56.912
X15.916 Y56.912
X15.916 Y56.988
X15.941 Y56.988
X15.941 Y57.039
X15.966 Y57.039
X15.966 Y57.115
X15.992 Y57.115
X15.992 Y57.191
X16.017 Y57.191
X16.017 Y57.242
X16.043 Y57.242
X16.043 Y57.318
X16.068 Y57.318
X16.068 Y57.369
X16.094 Y57.369
X16.094 Y57.445
X16.119 Y57.445
X16.119 Y57.496
X16.144 Y57.496
X16.144 Y57.572
X16.170 Y57.572
X16.170 Y57.648
X16.195 Y57.648
X16.195 Y57.699
X16.221 Y57.699
X16.221 Y57.775
X16.246 Y57.775
X16.246 Y57.826
X16.271 Y57.826
X16.271 Y57.902
X16.297 Y57.902
X16.297 Y57.953
X16.322 Y57.953
X16.322 Y58.029
X16.348 Y58.029
X16.348 Y58.080
X16.373 Y58.080
X16.373 Y58.156
X16.398 Y58.156
X16.398 Y58.232
X16.424 Y58.232
X16.424 Y58.283
X16.449 Y58.283
X16.449 Y58.359
X16.474 Y58.359
X16.474 Y58.410
X16.500 Y58.410
X16.500 Y59.293
X16.474 Y59.293
X16.474 Y59.344
X16.449 Y59.344
X16.449 Y59.370
X16.398 Y59.370
X16.398 Y59.395
X16.023 Y59.395
X16.023 Y59.370
X15.998 Y59.370
X15.998 Y59.344
X15.972 Y59.344
X15.972 Y59.319
X15.947 Y59.319
X15.947 Y58.735
X15.921 Y58.735
X15.921 Y58.684
X15.896 Y58.684
X15.896 Y58.608
X15.871 Y58.608
X15.871 Y58.557
X15.845 Y58.557
X15.845 Y58.481
X15.820 Y58.481
X15.820 Y58.404
X15.795 Y58.404
X15.795 Y58.354
X15.769 Y58.354
X15.769 Y58.277
X15.744 Y58.277
X15.744 Y58.227
X15.718 Y58.227
X15.718 Y58.150
X15.693 Y58.150
X15.693 Y58.100
X15.668 Y58.100
X15.668 Y58.023
X15.642 Y58.023
X15.642 Y57.973
X15.617 Y57.973
X15.617 Y57.896
X15.611 Y57.896
X15.611 Y57.922
X15.586 Y57.922
X15.586 Y57.998
X15.560 Y57.998
X15.560 Y58.049
X15.535 Y58.049
X15.535 Y58.125
X15.509 Y58.125
X15.509 Y58.176
X15.484 Y58.176
X15.484 Y58.252
X15.459 Y58.252
X15.459 Y58.303
X15.433 Y58.303
X15.433 Y58.379
X15.408 Y58.379
X15.408 Y58.430
X15.382 Y58.430
X15.382 Y58.506
X15.357 Y58.506
X15.357 Y58.582
X15.332 Y58.582
X15.332 Y58.633
X15.306 Y58.633
X15.306 Y58.709
X15.281 Y58.709
X15.281 Y59.293
X15.255 Y59.293
X15.255 Y59.319
X15.230 Y59.319
X15.230 Y59.370
X15.179 Y59.370
X15.179 Y59.395
X14.804 Y59.395
G0 Z3.000
G0  X79.904 Y59.344
G0  Z3.000
G01 F400 Z0
G01 F400 Z-0.100
G01F400X79.904 Y57.750
X80.819 Y57.750
X80.819 Y57.261
X80.330 Y57.261
X80.330 Y57.287
X80.254 Y57.287
X80.254 Y57.312
X80.203 Y57.312
X80.203 Y57.338
X80.152 Y57.338
X80.152 Y57.363
X80.076 Y57.363
X80.076 Y57.388
X79.701 Y57.388
X79.701 Y57.363
X79.650 Y57.363
X79.650 Y57.338
X79.625 Y57.338
X79.625 Y57.287
X79.599 Y57.287
X79.599 Y56.937
X79.625 Y56.937
X79.625 Y56.886
X79.650 Y56.886
X79.650 Y56.861
X79.701 Y56.861
X79.701 Y56.835
X79.752 Y56.835
X79.752 Y56.810
X79.803 Y56.810
X79.803 Y56.785
X79.853 Y56.785
X79.853 Y56.759
X79.930 Y56.759
X79.930 Y56.734
X80.006 Y56.734
X80.006 Y56.708
X81.168 Y56.708
X81.168 Y56.734
X81.219 Y56.734
X81.219 Y56.759
X81.270 Y56.759
X81.270 Y56.785
X81.295 Y56.785
X81.295 Y56.810
X81.321 Y56.810
X81.321 Y56.835
X81.346 Y56.835
X81.346 Y56.886
X81.371 Y56.886
X81.371 Y56.988
X81.397 Y56.988
X81.397 Y58.023
X81.371 Y58.023
X81.371 Y58.125
X81.346 Y58.125
X81.346 Y58.176
X81.321 Y58.176
X81.321 Y58.201
X81.295 Y58.201
X81.295 Y58.227
X81.270 Y58.227
X81.270 Y58.252
X81.245 Y58.252
X81.245 Y58.277
X81.194 Y58.277
X81.194 Y58.303
X80.483 Y58.303
X80.483 Y58.791
X81.270 Y58.791
X81.270 Y58.817
X81.321 Y58.817
X81.321 Y58.842
X81.346 Y58.842
X81.346 Y58.867
X81.371 Y58.867
X81.371 Y58.918
X81.397 Y58.918
X81.397 Y59.217
X81.371 Y59.217
X81.371 Y59.293
X81.346 Y59.293
X81.346 Y59.319
X81.295 Y59.319
X81.295 Y59.344
X79.904 Y59.344
G0 Z3.000
G0  X24.684 Y59.293
G0  Z3.000
G01 F400 Z0
G01 F400 Z-0.100
G01F400X24.684 Y59.268
X24.634 Y59.268
X24.634 Y59.243
X24.608 Y59.243
X24.608 Y59.166
X24.583 Y59.166
X24.583 Y58.867
X24.608 Y58.867
X24.608 Y58.817
X24.634 Y58.817
X24.634 Y58.791
X24.659 Y58.791
X24.659 Y58.766
X24.684 Y58.766
X24.684 Y58.740
X25.193 Y58.740
X25.193 Y57.211
X24.684 Y57.211
X24.684 Y57.185
X24.634 Y57.185
X24.634 Y57.134
X24.608 Y57.134
X24.608 Y57.084
X24.583 Y57.084
X24.583 Y56.785
X24.608 Y56.785
X24.608 Y56.734
X24.634 Y56.734
X24.634 Y56.683
X24.684 Y56.683
X24.684 Y56.658
X26.279 Y56.658
X26.279 Y56.683
X26.330 Y56.683
X26.330 Y56.734
X26.355 Y56.734
X26.355 Y56.759
X26.381 Y56.759
X26.381 Y57.109
X26.355 Y57.109
X26.355 Y57.134
X26.330 Y57.134
X26.330 Y57.185
X26.279 Y57.185
X26.279 Y57.211
X25.771 Y57.211
X25.771 Y58.740
X26.279 Y58.740
X26.279 Y58.766
X26.304 Y58.766
X26.304 Y58.791
X26.330 Y58.791
X26.330 Y58.817
X26.355 Y58.817
X26.355 Y58.867
X26.381 Y58.867
X26.381 Y59.192
X26.355 Y59.192
X26.355 Y59.243
X26.330 Y59.243
X26.330 Y59.268
X26.304 Y59.268
X26.304 Y59.293
X24.684 Y59.293
G0 Z3.000
G0  X22.145 Y59.293
G0  Z3.000
G01 F400 Z0
G01 F400 Z-0.100
G01F400X22.145 Y56.658
X23.434 Y56.658
X23.434 Y56.683
X23.536 Y56.683
X23.536 Y56.708
X23.587 Y56.708
X23.587 Y56.734
X23.612 Y56.734
X23.612 Y56.759
X23.663 Y56.759
X23.663 Y56.785
X23.688 Y56.785
X23.688 Y56.810
X23.713 Y56.810
X23.713 Y56.835
X23.739 Y56.835
X23.739 Y56.861
X23.764 Y56.861
X23.764 Y56.886
X23.790 Y56.886
X23.790 Y56.912
X23.815 Y56.912
X23.815 Y56.937
X23.841 Y56.937
X23.841 Y56.988
X23.866 Y56.988
X23.866 Y57.039
X23.891 Y57.039
X23.891 Y57.115
X23.917 Y57.115
X23.917 Y57.820
X23.891 Y57.820
X23.891 Y57.871
X23.866 Y57.871
X23.866 Y57.922
X23.841 Y57.922
X23.841 Y57.973
X23.815 Y57.973
X23.815 Y57.978
X23.841 Y57.978
X23.841 Y58.029
X23.866 Y58.029
X23.866 Y58.080
X23.891 Y58.080
X23.891 Y58.156
X23.917 Y58.156
X23.917 Y58.862
X23.891 Y58.862
X23.891 Y58.912
X23.866 Y58.912
X23.866 Y58.963
X23.841 Y58.963
X23.841 Y59.014
X23.815 Y59.014
X23.815 Y59.039
X23.790 Y59.039
X23.790 Y59.090
X23.764 Y59.090
X23.764 Y59.116
X23.739 Y59.116
X23.739 Y59.141
X23.713 Y59.141
X23.713 Y59.166
X23.663 Y59.166
X23.663 Y59.192
X23.637 Y59.192
X23.637 Y59.217
X23.587 Y59.217
X23.587 Y59.243
X23.536 Y59.243
X23.536 Y59.268
X23.460 Y59.268
X23.460 Y59.293
X22.145 Y59.293
G0 Z3.000
G0  X30.349 Y59.293
G0  Z3.000
G01 F400 Z0
G01 F400 Z-0.100
G01F400X30.349 Y59.268
X30.323 Y59.268
X30.323 Y59.243
X30.298 Y59.243
X30.298 Y59.192
X30.273 Y59.192
X30.273 Y59.090
X30.247 Y59.090
X30.247 Y59.014
X30.222 Y59.014
X30.222 Y58.912
X30.196 Y58.912
X30.196 Y58.836
X30.171 Y58.836
X30.171 Y58.760
X30.146 Y58.760
X30.146 Y58.658
X30.120 Y58.658
X30.120 Y58.582
X30.095 Y58.582
X30.095 Y58.481
X30.069 Y58.481
X30.069 Y58.404
X30.044 Y58.404
X30.044 Y58.303
X30.019 Y58.303
X30.019 Y58.227
X29.993 Y58.227
X29.993 Y58.150
X29.968 Y58.150
X29.968 Y58.049
X29.942 Y58.049
X29.942 Y57.973
X29.917 Y57.973
X29.917 Y57.871
X29.892 Y57.871
X29.892 Y57.795
X29.866 Y57.795
X29.866 Y57.719
X29.841 Y57.719
X29.841 Y57.617
X29.815 Y57.617
X29.815 Y57.541
X29.790 Y57.541
X29.790 Y57.439
X29.765 Y57.439
X29.765 Y57.363
X29.739 Y57.363
X29.739 Y57.261
X29.714 Y57.261
X29.714 Y57.185
X29.688 Y57.185
X29.688 Y57.109
X29.663 Y57.109
X29.663 Y56.759
X29.688 Y56.759
X29.688 Y56.708
X29.714 Y56.708
X29.714 Y56.683
X29.765 Y56.683
X29.765 Y56.658
X30.140 Y56.658
X30.140 Y56.683
X30.165 Y56.683
X30.165 Y56.708
X30.191 Y56.708
X30.191 Y56.734
X30.216 Y56.734
X30.216 Y56.785
X30.241 Y56.785
X30.241 Y56.861
X30.267 Y56.861
X30.267 Y56.962
X30.292 Y56.962
X30.292 Y57.039
X30.318 Y57.039
X30.318 Y57.140
X30.343 Y57.140
X30.343 Y57.166
X30.780 Y57.166
X30.780 Y57.140
X30.806 Y57.140
X30.806 Y57.039
X30.831 Y57.039
X30.831 Y56.962
X30.857 Y56.962
X30.857 Y56.861
X30.882 Y56.861
X30.882 Y56.785
X30.908 Y56.785
X30.908 Y56.734
X30.933 Y56.734
X30.933 Y56.708
X30.958 Y56.708
X30.958 Y56.683
X30.984 Y56.683
X30.984 Y56.658
X31.359 Y56.658
X31.359 Y56.683
X31.410 Y56.683
X31.410 Y56.708
X31.435 Y56.708
X31.435 Y56.759
X31.461 Y56.759
X31.461 Y57.084
X31.435 Y57.084
X31.435 Y57.185
X31.410 Y57.185
X31.410 Y57.261
X31.384 Y57.261
X31.384 Y57.338
X31.359 Y57.338
X31.359 Y57.439
X31.334 Y57.439
X31.334 Y57.515
X31.308 Y57.515
X31.308 Y57.617
X31.283 Y57.617
X31.283 Y57.693
X31.257 Y57.693
X31.257 Y57.795
X31.232 Y57.795
X31.232 Y57.871
X31.207 Y57.871
X31.207 Y57.973
X31.181 Y57.973
X31.181 Y58.049
X31.156 Y58.049
X31.156 Y58.125
X31.130 Y58.125
X31.130 Y58.227
X31.105 Y58.227
X31.105 Y58.303
X31.080 Y58.303
X31.080 Y58.404
X31.054 Y58.404
X31.054 Y58.481
X31.029 Y58.481
X31.029 Y58.582
X31.003 Y58.582
X31.003 Y58.658
X30.978 Y58.658
X30.978 Y58.735
X30.953 Y58.735
X30.953 Y58.836
X30.927 Y58.836
X30.927 Y58.912
X30.902 Y58.912
X30.902 Y59.014
X30.876 Y59.014
X30.876 Y59.090
X30.851 Y59.090
X30.851 Y59.192
X30.826 Y59.192
X30.826 Y59.243
X30.800 Y59.243
X30.800 Y59.268
X30.775 Y59.268
X30.775 Y59.293
X30.349 Y59.293
G0 Z3.000
G0  X27.225 Y59.293
G0  Z3.000
G01 F400 Z0
G01 F400 Z-0.100
G01F400X27.225 Y59.268
X27.174 Y59.268
X27.174 Y59.243
X27.148 Y59.243
X27.148 Y59.166
X27.123 Y59.166
X27.123 Y56.658
X28.819 Y56.658
X28.819 Y56.683
X28.870 Y56.683
X28.870 Y56.734
X28.895 Y56.734
X28.895 Y56.759
X28.921 Y56.759
X28.921 Y57.109
X28.895 Y57.109
X28.895 Y57.134
X28.870 Y57.134
X28.870 Y57.185
X28.819 Y57.185
X28.819 Y57.211
X27.701 Y57.211
X27.701 Y59.166
X27.676 Y59.166
X27.676 Y59.243
X27.651 Y59.243
X27.651 Y59.268
X27.600 Y59.268
X27.600 Y59.293
X27.225 Y59.293
G0 Z3.000
G0  X9.444 Y59.293
G0  Z3.000
G01 F400 Z0
G01 F400 Z-0.100
G01F400X9.444 Y56.759
X9.470 Y56.759
X9.470 Y56.708
X9.495 Y56.708
X9.495 Y56.683
X9.546 Y56.683
X9.546 Y56.658
X9.921 Y56.658
X9.921 Y56.683
X9.947 Y56.683
X9.947 Y56.708
X9.972 Y56.708
X9.972 Y56.734
X9.998 Y56.734
X9.998 Y57.928
X10.003 Y57.928
X10.003 Y57.877
X10.029 Y57.877
X10.029 Y57.851
X10.054 Y57.851
X10.054 Y57.801
X10.080 Y57.801
X10.080 Y57.750
X10.105 Y57.750
X10.105 Y57.699
X10.130 Y57.699
X10.130 Y57.674
X10.156 Y57.674
X10.156 Y57.623
X10.181 Y57.623
X10.181 Y57.572
X10.207 Y57.572
X10.207 Y57.547
X10.232 Y57.547
X10.232 Y57.496
X10.257 Y57.496
X10.257 Y57.445
X10.283 Y57.445
X10.283 Y57.394
X10.308 Y57.394
X10.308 Y57.369
X10.334 Y57.369
X10.334 Y57.318
X10.359 Y57.318
X10.359 Y57.267
X10.384 Y57.267
X10.384 Y57.242
X10.410 Y57.242
X10.410 Y57.191
X10.435 Y57.191
X10.435 Y57.140
X10.460 Y57.140
X10.460 Y57.089
X10.486 Y57.089
X10.486 Y57.064
X10.511 Y57.064
X10.511 Y57.013
X10.537 Y57.013
X10.537 Y56.962
X10.562 Y56.962
X10.562 Y56.937
X10.588 Y56.937
X10.588 Y56.886
X10.613 Y56.886
X10.613 Y56.835
X10.638 Y56.835
X10.638 Y56.785
X10.664 Y56.785
X10.664 Y56.759
X10.689 Y56.759
X10.689 Y56.708
X10.715 Y56.708
X10.715 Y56.683
X10.765 Y56.683
X10.765 Y56.658
X11.141 Y56.658
X11.141 Y56.683
X11.166 Y56.683
X11.166 Y56.708
X11.191 Y56.708
X11.191 Y56.734
X11.217 Y56.734
X11.217 Y57.134
X11.191 Y57.134
X11.191 Y57.185
X11.166 Y57.185
X11.166 Y57.236
X11.141 Y57.236
X11.141 Y57.261
X11.115 Y57.261
X11.115 Y57.312
X11.090 Y57.312
X11.090 Y57.363
X11.064 Y57.363
X11.064 Y57.414
X11.039 Y57.414
X11.039 Y57.439
X11.014 Y57.439
X11.014 Y57.490
X10.988 Y57.490
X10.988 Y57.541
X10.963 Y57.541
X10.963 Y57.566
X10.937 Y57.566
X10.937 Y57.617
X10.912 Y57.617
X10.912 Y57.668
X10.886 Y57.668
X10.886 Y57.719
X10.861 Y57.719
X10.861 Y57.744
X10.836 Y57.744
X10.836 Y57.795
X10.810 Y57.795
X10.810 Y57.846
X10.785 Y57.846
X10.785 Y57.871
X10.760 Y57.871
X10.760 Y57.922
X10.734 Y57.922
X10.734 Y57.953
X10.836 Y57.953
X10.836 Y57.978
X10.937 Y57.978
X10.937 Y58.004
X10.988 Y58.004
X10.988 Y58.029
X11.014 Y58.029
X11.014 Y58.055
X11.064 Y58.055
X11.064 Y58.080
X11.090 Y58.080
X11.090 Y58.105
X11.115 Y58.105
X11.115 Y58.156
X11.141 Y58.156
X11.141 Y58.182
X11.166 Y58.182
X11.166 Y58.232
X11.191 Y58.232
X11.191 Y58.283
X11.217 Y58.283
X11.217 Y58.989
X11.191 Y58.989
X11.191 Y59.039
X11.166 Y59.039
X11.166 Y59.090
X11.141 Y59.090
X11.141 Y59.116
X11.115 Y59.116
X11.115 Y59.141
X11.090 Y59.141
X11.090 Y59.166
X11.064 Y59.166
X11.064 Y59.192
X11.039 Y59.192
X11.039 Y59.217
X11.014 Y59.217
X11.014 Y59.243
X10.963 Y59.243
X10.963 Y59.268
X10.886 Y59.268
X10.886 Y59.293
X9.444 Y59.293
G0 Z3.000
G0  X32.686 Y59.293
G0  Z3.000
G01 F400 Z0
G01 F400 Z-0.100
G01F400X32.686 Y59.268
X32.635 Y59.268
X32.635 Y59.243
X32.609 Y59.243
X32.609 Y59.217
X32.584 Y59.217
X32.584 Y59.192
X32.559 Y59.192
X32.559 Y59.166
X32.533 Y59.166
X32.533 Y59.116
X32.508 Y59.116
X32.508 Y58.989
X32.482 Y58.989
X32.482 Y56.962
X32.508 Y56.962
X32.508 Y56.835
X32.533 Y56.835
X32.533 Y56.810
X32.559 Y56.810
X32.559 Y56.759
X32.584 Y56.759
X32.584 Y56.734
X32.609 Y56.734
X32.609 Y56.708
X32.660 Y56.708
X32.660 Y56.683
X32.711 Y56.683
X32.711 Y56.658
X34.051 Y56.658
X34.051 Y56.683
X34.102 Y56.683
X34.102 Y56.708
X34.153 Y56.708
X34.153 Y56.734
X34.178 Y56.734
X34.178 Y56.759
X34.204 Y56.759
X34.204 Y56.785
X34.229 Y56.785
X34.229 Y56.835
X34.255 Y56.835
X34.255 Y56.886
X34.280 Y56.886
X34.280 Y59.065
X34.255 Y59.065
X34.255 Y59.116
X34.229 Y59.116
X34.229 Y59.166
X34.204 Y59.166
X34.204 Y59.192
X34.178 Y59.192
X34.178 Y59.217
X34.153 Y59.217
X34.153 Y59.243
X34.128 Y59.243
X34.128 Y59.268
X34.077 Y59.268
X34.077 Y59.293
X32.686 Y59.293
G0 Z3.000
G0  X78.406 Y59.166
G0  Z3.000
G01 F400 Z0
G01 F400 Z-0.100
G01F400X78.406 Y59.141
X78.355 Y59.141
X78.355 Y59.116
X78.329 Y59.116
X78.329 Y59.090
X78.304 Y59.090
X78.304 Y59.039
X78.279 Y59.039
X78.279 Y58.277
X77.542 Y58.277
X77.542 Y58.252
X77.466 Y58.252
X77.466 Y58.227
X77.440 Y58.227
X77.440 Y58.201
X77.415 Y58.201
X77.415 Y58.150
X77.389 Y58.150
X77.389 Y58.100
X77.364 Y58.100
X77.364 Y57.724
X77.389 Y57.724
X77.389 Y57.674
X77.415 Y57.674
X77.415 Y57.648
X77.440 Y57.648
X77.440 Y57.623
X77.466 Y57.623
X77.466 Y57.597
X77.491 Y57.597
X77.491 Y57.572
X78.279 Y57.572
X78.279 Y56.810
X78.304 Y56.810
X78.304 Y56.759
X78.329 Y56.759
X78.329 Y56.734
X78.355 Y56.734
X78.355 Y56.708
X78.380 Y56.708
X78.380 Y56.683
X78.431 Y56.683
X78.431 Y56.658
X78.832 Y56.658
X78.832 Y56.683
X78.882 Y56.683
X78.882 Y56.708
X78.908 Y56.708
X78.908 Y56.734
X78.933 Y56.734
X78.933 Y56.759
X78.959 Y56.759
X78.959 Y56.810
X78.984 Y56.810
X78.984 Y57.572
X79.746 Y57.572
X79.746 Y57.597
X79.797 Y57.597
X79.797 Y57.623
X79.822 Y57.623
X79.822 Y57.648
X79.848 Y57.648
X79.848 Y57.674
X79.873 Y57.674
X79.873 Y57.750
X79.898 Y57.750
X79.898 Y58.100
X79.873 Y58.100
X79.873 Y58.150
X79.848 Y58.150
X79.848 Y58.201
X79.822 Y58.201
X79.822 Y58.227
X79.771 Y58.227
X79.771 Y58.252
X79.721 Y58.252
X79.721 Y58.277
X78.984 Y58.277
X78.984 Y59.014
X78.959 Y59.014
X78.959 Y59.065
X78.933 Y59.065
X78.933 Y59.116
X78.908 Y59.116
X78.908 Y59.141
X78.857 Y59.141
X78.857 Y59.166
X78.406 Y59.166
G0 Z3.000
G0  X35.641 Y58.744
G0  Z3.000
G01 F400 Z0
G01 F400 Z-0.100
G01F400X35.491 Y58.712
X35.351 Y58.650
X35.227 Y58.559
X35.124 Y58.445
X35.047 Y58.312
X35.000 Y58.166
X34.984 Y58.020
X35.010 Y53.994
X35.025 Y53.848
X35.041 Y53.798
X35.011 Y53.775
X34.852 Y53.599
X34.734 Y53.394
X34.661 Y53.169
X34.636 Y52.934
X34.661 Y52.698
X34.734 Y52.473
X34.852 Y52.268
X35.011 Y52.092
X35.202 Y51.953
X35.419 Y51.856
X35.650 Y51.807
X35.887 Y51.807
X36.119 Y51.856
X36.335 Y51.953
X36.527 Y52.092
X36.685 Y52.268
X36.803 Y52.473
X36.877 Y52.698
X36.901 Y52.934
X36.877 Y53.169
X36.803 Y53.394
X36.685 Y53.599
X36.527 Y53.775
X36.455 Y53.828
X36.462 Y53.848
X36.477 Y53.994
X36.456 Y57.283
X60.477 Y57.283
X60.435 Y53.944
X60.450 Y53.797
X60.467 Y53.748
X60.448 Y53.734
X60.297 Y53.567
X60.185 Y53.372
X60.115 Y53.158
X60.091 Y52.934
X60.115 Y52.710
X60.185 Y52.495
X60.297 Y52.300
X60.448 Y52.133
X60.630 Y52.001
X60.836 Y51.909
X61.056 Y51.862
X61.281 Y51.862
X61.502 Y51.909
X61.707 Y52.001
X61.890 Y52.133
X62.040 Y52.300
X62.153 Y52.495
X62.222 Y52.710
X62.246 Y52.934
X62.222 Y53.158
X62.153 Y53.372
X62.040 Y53.567
X61.890 Y53.733
X61.871 Y53.748
X61.887 Y53.797
X61.902 Y53.942
X61.953 Y58.019
X61.938 Y58.166
X61.890 Y58.312
X61.814 Y58.445
X61.711 Y58.559
X61.587 Y58.650
X61.446 Y58.712
X61.296 Y58.744
X35.641 Y58.744
G0 Z3.000
G0  X33.061 Y58.740
G0  Z3.000
G01 F400 Z0
G01 F400 Z-0.100
G01F400X33.727 Y58.740
X33.727 Y57.211
X33.061 Y57.211
X33.061 Y58.740
G0 Z3.000
G0  X22.698 Y58.740
G0  Z3.000
G01 F400 Z0
G01 F400 Z-0.100
G01F400X23.161 Y58.740
X23.161 Y58.715
X23.211 Y58.715
X23.211 Y58.690
X23.237 Y58.690
X23.237 Y58.664
X23.262 Y58.664
X23.262 Y58.639
X23.288 Y58.639
X23.288 Y58.613
X23.313 Y58.613
X23.313 Y58.588
X23.338 Y58.588
X23.338 Y58.537
X23.364 Y58.537
X23.364 Y58.481
X23.338 Y58.481
X23.338 Y58.404
X23.313 Y58.404
X23.313 Y58.379
X23.288 Y58.379
X23.288 Y58.354
X23.262 Y58.354
X23.262 Y58.328
X23.237 Y58.328
X23.237 Y58.303
X23.186 Y58.303
X23.186 Y58.277
X23.110 Y58.277
X23.110 Y58.252
X22.723 Y58.252
X22.723 Y58.277
X22.698 Y58.277
X22.698 Y58.740
G0 Z3.000
G0  X9.998 Y58.740
G0  Z3.000
G01 F400 Z0
G01 F400 Z-0.100
G01F400X10.588 Y58.740
X10.588 Y58.715
X10.613 Y58.715
X10.613 Y58.690
X10.638 Y58.690
X10.638 Y58.664
X10.664 Y58.664
X10.664 Y58.608
X10.638 Y58.608
X10.638 Y58.582
X10.613 Y58.582
X10.613 Y58.557
X10.588 Y58.557
X10.588 Y58.531
X10.511 Y58.531
X10.511 Y58.506
X10.023 Y58.506
X10.023 Y58.531
X9.998 Y58.531
X9.998 Y58.740
G0 Z3.000
G0  X81.936 Y58.709
G0  Z3.000
G01 F400 Z0
G01 F400 Z-0.100
G01F400X81.936 Y58.684
X81.885 Y58.684
X81.885 Y58.658
X81.860 Y58.658
X81.860 Y58.608
X81.835 Y58.608
X81.835 Y57.953
X81.860 Y57.953
X81.860 Y57.902
X81.885 Y57.902
X81.885 Y57.851
X81.911 Y57.851
X81.911 Y57.801
X81.936 Y57.801
X81.936 Y57.724
X81.962 Y57.724
X81.962 Y57.674
X81.987 Y57.674
X81.987 Y57.623
X82.012 Y57.623
X82.012 Y57.547
X82.038 Y57.547
X82.038 Y57.496
X82.063 Y57.496
X82.063 Y57.445
X82.089 Y57.445
X82.089 Y57.394
X82.114 Y57.394
X82.114 Y57.318
X82.139 Y57.318
X82.139 Y57.267
X82.165 Y57.267
X82.165 Y57.216
X82.190 Y57.216
X82.190 Y57.140
X82.216 Y57.140
X82.216 Y57.089
X82.241 Y57.089
X82.241 Y57.039
X82.266 Y57.039
X82.266 Y56.988
X82.292 Y56.988
X82.292 Y56.912
X82.317 Y56.912
X82.317 Y56.861
X82.343 Y56.861
X82.343 Y56.810
X82.368 Y56.810
X82.368 Y56.759
X82.393 Y56.759
X82.393 Y56.734
X82.419 Y56.734
X82.419 Y56.708
X82.997 Y56.708
X82.997 Y56.734
X83.048 Y56.734
X83.048 Y56.759
X83.073 Y56.759
X83.073 Y56.810
X83.099 Y56.810
X83.099 Y56.861
X83.124 Y56.861
X83.124 Y56.912
X83.150 Y56.912
X83.150 Y56.988
X83.175 Y56.988
X83.175 Y57.039
X83.200 Y57.039
X83.200 Y57.089
X83.226 Y57.089
X83.226 Y57.166
X83.251 Y57.166
X83.251 Y57.216
X83.276 Y57.216
X83.276 Y57.267
X83.302 Y57.267
X83.302 Y57.318
X83.327 Y57.318
X83.327 Y57.394
X83.353 Y57.394
X83.353 Y57.445
X83.378 Y57.445
X83.378 Y57.496
X83.404 Y57.496
X83.404 Y57.572
X83.429 Y57.572
X83.429 Y57.623
X83.454 Y57.623
X83.454 Y57.674
X83.480 Y57.674
X83.480 Y57.750
X83.505 Y57.750
X83.505 Y57.801
X83.531 Y57.801
X83.531 Y57.851
X83.556 Y57.851
X83.556 Y57.902
X83.581 Y57.902
X83.581 Y57.978
X83.607 Y57.978
X83.607 Y58.608
X83.581 Y58.608
X83.581 Y58.658
X83.531 Y58.658
X83.531 Y58.684
X83.505 Y58.684
X83.505 Y58.709
X83.155 Y58.709
X83.155 Y58.684
X83.130 Y58.684
X83.130 Y58.658
X83.079 Y58.658
X83.079 Y58.608
X83.054 Y58.608
X83.054 Y58.303
X83.028 Y58.303
X83.028 Y58.227
X83.003 Y58.227
X83.003 Y58.176
X82.978 Y58.176
X82.978 Y58.125
X82.952 Y58.125
X82.952 Y58.049
X82.927 Y58.049
X82.927 Y57.998
X82.901 Y57.998
X82.901 Y57.947
X82.876 Y57.947
X82.876 Y57.896
X82.851 Y57.896
X82.851 Y57.820
X82.825 Y57.820
X82.825 Y57.769
X82.800 Y57.769
X82.800 Y57.719
X82.774 Y57.719
X82.774 Y57.668
X82.749 Y57.668
X82.749 Y57.592
X82.724 Y57.592
X82.724 Y57.541
X82.718 Y57.541
X82.718 Y57.592
X82.692 Y57.592
X82.692 Y57.642
X82.667 Y57.642
X82.667 Y57.719
X82.642 Y57.719
X82.642 Y57.769
X82.616 Y57.769
X82.616 Y57.820
X82.591 Y57.820
X82.591 Y57.871
X82.565 Y57.871
X82.565 Y57.947
X82.540 Y57.947
X82.540 Y57.998
X82.514 Y57.998
X82.514 Y58.049
X82.489 Y58.049
X82.489 Y58.125
X82.464 Y58.125
X82.464 Y58.176
X82.438 Y58.176
X82.438 Y58.227
X82.413 Y58.227
X82.413 Y58.303
X82.388 Y58.303
X82.388 Y58.608
X82.362 Y58.608
X82.362 Y58.658
X82.311 Y58.658
X82.311 Y58.684
X82.261 Y58.684
X82.261 Y58.709
X81.936 Y58.709
G0 Z3.000
G0  X70.227 Y58.354
G0  Z3.000
G01 F400 Z0
G01 F400 Z-0.100
G01F400X70.227 Y58.328
X70.151 Y58.328
X70.151 Y58.303
X70.125 Y58.303
X70.125 Y58.277
X70.100 Y58.277
X70.100 Y58.252
X70.074 Y58.252
X70.074 Y58.227
X70.049 Y58.227
X70.049 Y58.150
X70.023 Y58.150
X70.023 Y57.623
X70.049 Y57.623
X70.049 Y57.572
X70.074 Y57.572
X70.074 Y57.521
X70.100 Y57.521
X70.100 Y57.496
X70.125 Y57.496
X70.125 Y57.470
X70.176 Y57.470
X70.176 Y57.445
X72.405 Y57.445
X72.405 Y57.470
X72.456 Y57.470
X72.456 Y57.496
X72.481 Y57.496
X72.481 Y57.521
X72.507 Y57.521
X72.507 Y57.547
X72.532 Y57.547
X72.532 Y57.597
X72.558 Y57.597
X72.558 Y58.176
X72.532 Y58.176
X72.532 Y58.227
X72.507 Y58.227
X72.507 Y58.277
X72.481 Y58.277
X72.481 Y58.303
X72.431 Y58.303
X72.431 Y58.328
X72.380 Y58.328
X72.380 Y58.354
X70.227 Y58.354
G0 Z3.000
G0  X30.546 Y57.902
G0  Z3.000
G01 F400 Z0
G01 F400 Z-0.100
G01F400X30.577 Y57.902
X30.577 Y57.826
X30.603 Y57.826
X30.603 Y57.744
X30.495 Y57.744
X30.495 Y57.750
X30.521 Y57.750
X30.521 Y57.826
X30.546 Y57.826
X30.546 Y57.902
G0 Z3.000
G0  X94.076 Y57.820
G0  Z3.000
G01 F400 Z0
G01 F400 Z-0.100
G01F400X93.854 Y57.773
X93.647 Y57.681
X93.464 Y57.548
X93.313 Y57.380
X93.200 Y57.184
X93.130 Y56.969
X93.106 Y56.744
X93.130 Y56.519
X93.200 Y56.303
X93.313 Y56.107
X93.464 Y55.939
X93.647 Y55.806
X93.854 Y55.714
X94.076 Y55.667
X94.302 Y55.667
X94.523 Y55.714
X94.730 Y55.806
X94.913 Y55.939
X95.065 Y56.107
X95.178 Y56.303
X95.248 Y56.519
X95.272 Y56.744
X95.248 Y56.969
X95.178 Y57.184
X95.065 Y57.380
X94.913 Y57.548
X94.730 Y57.681
X94.523 Y57.773
X94.302 Y57.820
X94.076 Y57.820
G0 Z3.000
G0  X3.905 Y57.820
G0  Z3.000
G01 F400 Z0
G01 F400 Z-0.100
G01F400X3.684 Y57.773
X3.477 Y57.681
X3.294 Y57.548
X3.143 Y57.380
X3.030 Y57.184
X2.960 Y56.969
X2.936 Y56.744
X2.960 Y56.519
X3.030 Y56.303
X3.143 Y56.107
X3.294 Y55.939
X3.477 Y55.806
X3.684 Y55.714
X3.905 Y55.667
X4.132 Y55.667
X4.353 Y55.714
X4.560 Y55.806
X4.743 Y55.939
X4.895 Y56.107
X5.008 Y56.303
X5.078 Y56.519
X5.102 Y56.744
X5.078 Y56.969
X5.008 Y57.184
X4.895 Y57.380
X4.743 Y57.548
X4.560 Y57.681
X4.353 Y57.773
X4.132 Y57.820
X3.905 Y57.820
G0 Z3.000
G0  X22.698 Y57.699
G0  Z3.000
G01 F400 Z0
G01 F400 Z-0.100
G01F400X23.135 Y57.699
X23.135 Y57.674
X23.211 Y57.674
X23.211 Y57.648
X23.237 Y57.648
X23.237 Y57.623
X23.262 Y57.623
X23.262 Y57.597
X23.288 Y57.597
X23.288 Y57.572
X23.313 Y57.572
X23.313 Y57.547
X23.338 Y57.547
X23.338 Y57.496
X23.364 Y57.496
X23.364 Y57.414
X23.338 Y57.414
X23.338 Y57.363
X23.313 Y57.363
X23.313 Y57.338
X23.288 Y57.338
X23.288 Y57.312
X23.262 Y57.312
X23.262 Y57.287
X23.237 Y57.287
X23.237 Y57.261
X23.186 Y57.261
X23.186 Y57.236
X23.135 Y57.236
X23.135 Y57.211
X22.698 Y57.211
X22.698 Y57.699
G0 Z3.000
G0  X38.283 Y56.204
G0  Z3.000
G01 F400 Z0
G01 F400 Z-0.100
G01F400X38.133 Y56.172
X37.992 Y56.110
X37.868 Y56.019
X37.765 Y55.905
X37.689 Y55.772
X37.641 Y55.626
X37.626 Y55.481
X37.602 Y54.066
X37.177 Y54.066
X37.177 Y51.802
X39.441 Y51.802
X39.441 Y54.066
X39.069 Y54.066
X39.081 Y54.743
X55.308 Y54.743
X55.355 Y46.323
X55.370 Y46.177
X55.387 Y46.128
X55.368 Y46.114
X55.217 Y45.947
X55.105 Y45.752
X55.035 Y45.538
X55.011 Y45.314
X55.035 Y45.090
X55.105 Y44.875
X55.217 Y44.680
X55.368 Y44.513
X55.550 Y44.381
X55.756 Y44.289
X55.976 Y44.242
X56.201 Y44.242
X56.422 Y44.289
X56.627 Y44.381
X56.809 Y44.513
X56.960 Y44.680
X57.073 Y44.875
X57.142 Y45.090
X57.166 Y45.314
X57.142 Y45.538
X57.073 Y45.752
X56.960 Y45.947
X56.810 Y46.114
X56.791 Y46.128
X56.807 Y46.177
X56.822 Y46.323
X56.772 Y55.480
X56.756 Y55.626
X56.709 Y55.772
X56.632 Y55.905
X56.529 Y56.019
X56.405 Y56.110
X56.265 Y56.172
X56.115 Y56.204
X38.283 Y56.204
G0 Z3.000
G0  X6.482 Y56.204
G0  Z3.000
G01 F400 Z0
G01 F400 Z-0.100
G01F400X6.332 Y56.172
X6.192 Y56.110
X6.067 Y56.019
X5.965 Y55.905
X5.888 Y55.772
X5.840 Y55.626
X5.825 Y55.480
X5.825 Y50.133
X5.840 Y49.987
X5.857 Y49.938
X5.838 Y49.924
X5.687 Y49.757
X5.575 Y49.562
X5.505 Y49.348
X5.481 Y49.124
X5.505 Y48.900
X5.575 Y48.685
X5.687 Y48.490
X5.838 Y48.323
X6.020 Y48.191
X6.226 Y48.099
X6.446 Y48.052
X6.671 Y48.052
X6.892 Y48.099
X7.097 Y48.191
X7.280 Y48.323
X7.430 Y48.490
X7.543 Y48.685
X7.612 Y48.900
X7.636 Y49.124
X7.612 Y49.348
X7.543 Y49.562
X7.430 Y49.757
X7.280 Y49.924
X7.261 Y49.938
X7.277 Y49.987
X7.292 Y50.133
X7.292 Y54.743
X32.457 Y54.743
X32.470 Y53.993
X32.485 Y53.848
X32.501 Y53.798
X32.471 Y53.775
X32.312 Y53.599
X32.194 Y53.394
X32.121 Y53.169
X32.096 Y52.934
X32.121 Y52.698
X32.194 Y52.473
X32.312 Y52.268
X32.471 Y52.092
X32.662 Y51.953
X32.879 Y51.856
X33.110 Y51.807
X33.347 Y51.807
X33.579 Y51.856
X33.795 Y51.953
X33.987 Y52.092
X34.145 Y52.268
X34.264 Y52.473
X34.337 Y52.698
X34.361 Y52.934
X34.337 Y53.169
X34.264 Y53.394
X34.145 Y53.599
X33.987 Y53.775
X33.915 Y53.828
X33.922 Y53.848
X33.937 Y53.995
X33.912 Y55.481
X33.896 Y55.626
X33.849 Y55.772
X33.772 Y55.905
X33.669 Y56.019
X33.545 Y56.110
X33.405 Y56.172
X33.255 Y56.204
X6.482 Y56.204
G0 Z3.000
G0  X50.897 Y54.316
G0  Z3.000
G01 F400 Z0
G01 F400 Z-0.100
G01F400X50.897 Y53.678
X50.857 Y53.746
X50.664 Y53.961
X50.430 Y54.131
X50.166 Y54.249
X49.883 Y54.309
X49.594 Y54.309
X49.311 Y54.249
X49.047 Y54.131
X48.813 Y53.961
X48.620 Y53.746
X48.572 Y53.664
X48.365 Y53.664
X48.317 Y53.746
X48.124 Y53.961
X47.890 Y54.131
X47.626 Y54.249
X47.343 Y54.309
X47.054 Y54.309
X46.771 Y54.249
X46.507 Y54.131
X46.273 Y53.961
X46.080 Y53.746
X46.032 Y53.664
X45.825 Y53.664
X45.777 Y53.746
X45.584 Y53.961
X45.350 Y54.131
X45.086 Y54.249
X44.803 Y54.309
X44.514 Y54.309
X44.231 Y54.249
X43.967 Y54.131
X43.733 Y53.961
X43.540 Y53.746
X43.396 Y53.496
X43.306 Y53.221
X43.276 Y52.934
X43.306 Y52.646
X43.396 Y52.371
X43.540 Y52.121
X43.733 Y51.906
X43.939 Y51.756
X43.925 Y51.619
X43.925 Y36.189
X43.940 Y36.042
X43.951 Y36.010
X43.912 Y35.983
X43.756 Y35.809
X43.640 Y35.607
X43.568 Y35.386
X43.543 Y35.154
X43.568 Y34.922
X43.640 Y34.700
X43.756 Y34.498
X43.912 Y34.325
X44.101 Y34.188
X44.314 Y34.093
X44.542 Y34.044
X44.775 Y34.044
X45.003 Y34.093
X45.216 Y34.188
X45.405 Y34.325
X45.561 Y34.498
X45.678 Y34.700
X45.750 Y34.922
X45.774 Y35.154
X45.750 Y35.386
X45.678 Y35.607
X45.561 Y35.809
X45.405 Y35.983
X45.367 Y36.010
X45.377 Y36.042
X45.392 Y36.189
X45.392 Y39.503
X60.391 Y39.503
X60.435 Y34.892
X60.450 Y34.747
X60.467 Y34.698
X60.448 Y34.684
X60.297 Y34.517
X60.185 Y34.322
X60.115 Y34.108
X60.091 Y33.884
X60.115 Y33.660
X60.185 Y33.445
X60.297 Y33.250
X60.448 Y33.083
X60.630 Y32.951
X60.836 Y32.859
X61.056 Y32.812
X61.281 Y32.812
X61.502 Y32.859
X61.707 Y32.951
X61.890 Y33.083
X61.959 Y33.160
X62.107 Y33.128
X64.245 Y33.108
X64.245 Y8.748
X63.974 Y8.490
X63.876 Y8.382
X63.850 Y8.335
X63.827 Y8.340
X63.590 Y8.340
X63.359 Y8.291
X63.142 Y8.195
X62.951 Y8.055
X62.792 Y7.879
X62.674 Y7.674
X62.601 Y7.449
X62.576 Y7.214
X62.601 Y6.978
X62.674 Y6.753
X62.792 Y6.548
X62.951 Y6.372
X63.142 Y6.233
X63.359 Y6.136
X63.590 Y6.087
X63.827 Y6.087
X64.059 Y6.136
X64.275 Y6.233
X64.467 Y6.372
X64.625 Y6.548
X64.743 Y6.753
X64.817 Y6.978
X64.841 Y7.214
X64.831 Y7.311
X64.838 Y7.314
X64.958 Y7.402
X65.476 Y7.893
X65.573 Y8.001
X65.650 Y8.134
X65.697 Y8.280
X65.712 Y8.426
X65.712 Y11.563
X75.629 Y11.563
X75.650 Y8.274
X75.665 Y8.127
X75.681 Y8.078
X75.651 Y8.055
X75.492 Y7.879
X75.374 Y7.674
X75.301 Y7.449
X75.276 Y7.214
X75.301 Y6.978
X75.374 Y6.753
X75.492 Y6.548
X75.651 Y6.372
X75.842 Y6.233
X76.059 Y6.136
X76.290 Y6.087
X76.527 Y6.087
X76.759 Y6.136
X76.975 Y6.233
X77.167 Y6.372
X77.325 Y6.548
X77.444 Y6.753
X77.517 Y6.978
X77.541 Y7.214
X77.517 Y7.449
X77.444 Y7.674
X77.325 Y7.879
X77.167 Y8.055
X77.095 Y8.107
X77.102 Y8.128
X77.117 Y8.274
X77.092 Y12.301
X77.076 Y12.446
X77.029 Y12.592
X76.952 Y12.725
X76.849 Y12.839
X76.725 Y12.930
X76.585 Y12.992
X76.435 Y13.024
X65.712 Y13.024
X65.712 Y24.263
X70.537 Y24.263
X70.604 Y24.189
X70.787 Y24.056
X70.994 Y23.964
X71.216 Y23.917
X71.442 Y23.917
X71.663 Y23.964
X71.870 Y24.056
X72.053 Y24.189
X72.205 Y24.357
X72.318 Y24.553
X72.388 Y24.768
X72.412 Y24.994
X72.388 Y25.219
X72.318 Y25.434
X72.205 Y25.630
X72.053 Y25.798
X71.870 Y25.931
X71.663 Y26.023
X71.442 Y26.070
X71.216 Y26.070
X70.994 Y26.023
X70.787 Y25.931
X70.604 Y25.798
X70.537 Y25.724
X65.712 Y25.724
X65.712 Y33.941
X65.697 Y34.087
X65.650 Y34.233
X65.573 Y34.366
X65.470 Y34.480
X65.346 Y34.570
X65.206 Y34.633
X65.056 Y34.665
X64.914 Y34.665
X62.107 Y34.614
X61.978 Y34.586
X61.890 Y34.684
X61.871 Y34.698
X61.887 Y34.747
X61.903 Y34.894
X61.852 Y40.241
X61.836 Y40.386
X61.789 Y40.532
X61.712 Y40.665
X61.699 Y40.680
X61.699 Y41.837
X61.707 Y41.841
X61.890 Y41.973
X62.040 Y42.140
X62.153 Y42.335
X62.222 Y42.550
X62.246 Y42.774
X62.222 Y42.998
X62.153 Y43.212
X62.040 Y43.407
X61.890 Y43.574
X61.707 Y43.707
X61.502 Y43.798
X61.281 Y43.845
X61.056 Y43.845
X60.836 Y43.798
X60.630 Y43.707
X60.448 Y43.574
X60.297 Y43.407
X60.185 Y43.212
X60.115 Y42.998
X60.091 Y42.774
X60.115 Y42.550
X60.185 Y42.335
X60.297 Y42.140
X60.448 Y41.973
X60.626 Y41.844
X60.638 Y41.837
X60.638 Y40.964
X45.392 Y40.964
X45.392 Y51.619
X45.378 Y51.756
X45.584 Y51.906
X45.777 Y52.121
X45.825 Y52.203
X46.032 Y52.203
X46.080 Y52.121
X46.273 Y51.906
X46.507 Y51.736
X46.771 Y51.619
X47.054 Y51.558
X47.343 Y51.558
X47.626 Y51.619
X47.890 Y51.736
X48.124 Y51.906
X48.317 Y52.121
X48.365 Y52.203
X48.572 Y52.203
X48.620 Y52.121
X48.813 Y51.906
X49.047 Y51.736
X49.311 Y51.619
X49.594 Y51.558
X49.883 Y51.558
X50.166 Y51.619
X50.430 Y51.736
X50.664 Y51.906
X50.857 Y52.121
X50.897 Y52.189
X50.897 Y51.552
X53.661 Y51.552
X53.661 Y54.316
X50.897 Y54.316
G0 Z3.000
G0  X77.791 Y54.066
G0  Z3.000
G01 F400 Z0
G01 F400 Z-0.100
G01F400X77.791 Y53.664
X77.373 Y53.664
X77.263 Y53.640
X77.141 Y53.775
X76.950 Y53.915
X76.733 Y54.011
X76.502 Y54.060
X76.265 Y54.060
X76.033 Y54.011
X75.817 Y53.915
X75.625 Y53.775
X75.467 Y53.599
X75.349 Y53.394
X75.275 Y53.169
X75.251 Y52.934
X75.275 Y52.698
X75.349 Y52.473
X75.467 Y52.268
X75.625 Y52.092
X75.817 Y51.953
X76.033 Y51.856
X76.265 Y51.807
X76.502 Y51.807
X76.733 Y51.856
X76.950 Y51.953
X77.141 Y52.092
X77.263 Y52.227
X77.373 Y52.203
X77.791 Y52.203
X77.791 Y51.802
X80.055 Y51.802
X80.055 Y52.203
X94.445 Y52.203
X93.844 Y50.401
X93.801 Y50.267
X93.790 Y50.170
X93.650 Y50.107
X93.468 Y49.975
X93.317 Y49.808
X93.205 Y49.613
X93.135 Y49.398
X93.111 Y49.174
X93.135 Y48.950
X93.205 Y48.736
X93.317 Y48.541
X93.467 Y48.375
X93.486 Y48.360
X93.470 Y48.311
X93.455 Y48.165
X93.455 Y41.319
X93.470 Y41.173
X93.481 Y41.141
X93.442 Y41.113
X93.286 Y40.940
X93.170 Y40.738
X93.098 Y40.516
X93.073 Y40.284
X93.098 Y40.053
X93.170 Y39.831
X93.286 Y39.629
X93.442 Y39.456
X93.631 Y39.319
X93.844 Y39.224
X94.072 Y39.175
X94.305 Y39.175
X94.533 Y39.224
X94.746 Y39.319
X94.935 Y39.456
X95.091 Y39.629
X95.208 Y39.831
X95.280 Y40.053
X95.304 Y40.284
X95.280 Y40.516
X95.208 Y40.738
X95.091 Y40.940
X94.935 Y41.113
X94.897 Y41.141
X94.907 Y41.173
X94.922 Y41.319
X94.922 Y48.165
X94.907 Y48.311
X94.891 Y48.360
X94.910 Y48.374
X95.060 Y48.541
X95.173 Y48.736
X95.242 Y48.950
X95.266 Y49.174
X95.242 Y49.398
X95.173 Y49.613
X95.123 Y49.699
X95.190 Y49.815
X96.133 Y52.647
X96.177 Y52.781
X96.193 Y52.934
X96.177 Y53.086
X96.130 Y53.232
X96.053 Y53.365
X95.950 Y53.479
X95.826 Y53.570
X95.686 Y53.632
X95.535 Y53.664
X80.055 Y53.664
X80.055 Y54.066
X77.791 Y54.066
G0 Z3.000
G0  X28.030 Y54.060
G0  Z3.000
G01 F400 Z0
G01 F400 Z-0.100
G01F400X27.799 Y54.011
X27.582 Y53.915
X27.391 Y53.775
X27.232 Y53.599
X27.114 Y53.394
X27.041 Y53.169
X27.016 Y52.934
X27.041 Y52.698
X27.114 Y52.473
X27.232 Y52.268
X27.391 Y52.092
X27.582 Y51.953
X27.799 Y51.856
X27.943 Y51.827
X27.986 Y51.696
X33.834 Y41.144
X33.905 Y41.021
X34.007 Y40.907
X34.132 Y40.817
X34.272 Y40.754
X34.422 Y40.722
X38.845 Y40.722
X38.845 Y36.189
X38.860 Y36.042
X38.871 Y36.010
X38.832 Y35.983
X38.676 Y35.809
X38.560 Y35.607
X38.488 Y35.386
X38.463 Y35.154
X38.488 Y34.922
X38.560 Y34.700
X38.676 Y34.498
X38.832 Y34.325
X39.021 Y34.188
X39.234 Y34.093
X39.462 Y34.044
X39.695 Y34.044
X39.923 Y34.093
X40.136 Y34.188
X40.325 Y34.325
X40.481 Y34.498
X40.598 Y34.700
X40.670 Y34.922
X40.694 Y35.154
X40.670 Y35.386
X40.598 Y35.607
X40.481 Y35.809
X40.325 Y35.983
X40.287 Y36.010
X40.297 Y36.042
X40.312 Y36.189
X40.312 Y41.459
X40.297 Y41.605
X40.250 Y41.752
X40.173 Y41.885
X40.070 Y41.999
X39.946 Y42.089
X39.806 Y42.151
X39.656 Y42.183
X34.930 Y42.183
X29.322 Y52.303
X29.251 Y52.425
X29.190 Y52.493
X29.257 Y52.698
X29.282 Y52.934
X29.257 Y53.169
X29.184 Y53.394
X29.065 Y53.599
X28.907 Y53.775
X28.715 Y53.915
X28.499 Y54.011
X28.267 Y54.060
X28.030 Y54.060
G0 Z3.000
G0  X25.490 Y54.060
G0  Z3.000
G01 F400 Z0
G01 F400 Z-0.100
G01F400X25.259 Y54.011
X25.042 Y53.915
X24.851 Y53.775
X24.692 Y53.599
X24.574 Y53.394
X24.501 Y53.169
X24.476 Y52.934
X24.501 Y52.698
X24.574 Y52.473
X24.692 Y52.268
X24.851 Y52.092
X25.042 Y51.953
X25.259 Y51.856
X25.403 Y51.827
X25.445 Y51.697
X32.513 Y38.604
X32.584 Y38.481
X32.687 Y38.367
X32.811 Y38.277
X32.951 Y38.214
X33.101 Y38.182
X36.305 Y38.182
X36.305 Y36.189
X36.320 Y36.042
X36.331 Y36.010
X36.292 Y35.983
X36.136 Y35.809
X36.020 Y35.607
X35.948 Y35.386
X35.923 Y35.154
X35.948 Y34.922
X36.020 Y34.700
X36.136 Y34.498
X36.292 Y34.325
X36.481 Y34.188
X36.694 Y34.093
X36.922 Y34.044
X37.155 Y34.044
X37.383 Y34.093
X37.596 Y34.188
X37.785 Y34.325
X37.941 Y34.498
X38.058 Y34.700
X38.130 Y34.922
X38.154 Y35.154
X38.130 Y35.386
X38.058 Y35.607
X37.941 Y35.809
X37.785 Y35.983
X37.747 Y36.010
X37.757 Y36.042
X37.772 Y36.189
X37.772 Y38.919
X37.757 Y39.066
X37.710 Y39.212
X37.633 Y39.345
X37.530 Y39.459
X37.406 Y39.549
X37.266 Y39.611
X37.116 Y39.643
X33.615 Y39.643
X26.782 Y52.302
X26.711 Y52.425
X26.650 Y52.493
X26.717 Y52.698
X26.742 Y52.934
X26.717 Y53.169
X26.643 Y53.394
X26.525 Y53.599
X26.367 Y53.775
X26.175 Y53.915
X25.959 Y54.011
X25.727 Y54.060
X25.490 Y54.060
G0 Z3.000
G0  X30.570 Y54.060
G0  Z3.000
G01 F400 Z0
G01 F400 Z-0.100
G01F400X30.339 Y54.011
X30.122 Y53.915
X29.931 Y53.775
X29.772 Y53.599
X29.654 Y53.394
X29.581 Y53.169
X29.556 Y52.934
X29.581 Y52.698
X29.654 Y52.473
X29.772 Y52.268
X29.931 Y52.092
X30.122 Y51.953
X30.339 Y51.856
X30.520 Y51.818
X30.551 Y51.721
X35.155 Y43.683
X35.225 Y43.561
X35.328 Y43.447
X35.452 Y43.357
X35.593 Y43.294
X35.743 Y43.262
X35.884 Y43.262
X41.385 Y43.351
X41.385 Y36.189
X41.400 Y36.042
X41.411 Y36.010
X41.372 Y35.983
X41.216 Y35.809
X41.100 Y35.607
X41.028 Y35.386
X41.003 Y35.154
X41.028 Y34.922
X41.100 Y34.700
X41.216 Y34.498
X41.372 Y34.325
X41.561 Y34.188
X41.774 Y34.093
X42.002 Y34.044
X42.235 Y34.044
X42.463 Y34.093
X42.676 Y34.188
X42.865 Y34.325
X43.021 Y34.498
X43.138 Y34.700
X43.210 Y34.922
X43.234 Y35.154
X43.210 Y35.386
X43.138 Y35.607
X43.021 Y35.809
X42.865 Y35.983
X42.827 Y36.010
X42.837 Y36.042
X42.852 Y36.189
X42.852 Y44.101
X42.837 Y44.247
X42.790 Y44.393
X42.713 Y44.526
X42.610 Y44.640
X42.486 Y44.730
X42.346 Y44.793
X42.196 Y44.825
X42.054 Y44.825
X36.239 Y44.731
X31.887 Y52.329
X31.816 Y52.451
X31.743 Y52.532
X31.797 Y52.698
X31.822 Y52.934
X31.797 Y53.169
X31.724 Y53.394
X31.605 Y53.599
X31.447 Y53.775
X31.255 Y53.915
X31.039 Y54.011
X30.807 Y54.060
X30.570 Y54.060
G0 Z3.000
G0  X71.185 Y54.060
G0  Z3.000
G01 F400 Z0
G01 F400 Z-0.100
G01F400X70.953 Y54.011
X70.737 Y53.915
X70.545 Y53.775
X70.387 Y53.599
X70.269 Y53.394
X70.195 Y53.169
X70.171 Y52.934
X70.195 Y52.698
X70.269 Y52.473
X70.387 Y52.268
X70.545 Y52.092
X70.596 Y52.055
X70.585 Y52.020
X70.570 Y51.874
X70.544 Y49.169
X70.560 Y49.022
X70.607 Y48.876
X70.684 Y48.743
X70.787 Y48.629
X70.911 Y48.538
X71.051 Y48.476
X71.201 Y48.444
X90.572 Y48.444
X90.572 Y48.098
X90.915 Y48.098
X90.915 Y41.319
X90.930 Y41.173
X90.941 Y41.141
X90.902 Y41.113
X90.746 Y40.940
X90.630 Y40.738
X90.558 Y40.516
X90.533 Y40.284
X90.558 Y40.053
X90.630 Y39.831
X90.746 Y39.629
X90.902 Y39.456
X90.941 Y39.428
X90.930 Y39.396
X90.915 Y39.250
X90.915 Y33.741
X90.572 Y33.741
X90.572 Y31.588
X92.725 Y31.588
X92.725 Y31.907
X93.455 Y31.894
X93.455 Y27.299
X93.470 Y27.152
X93.480 Y27.124
X93.468 Y27.115
X93.317 Y26.948
X93.205 Y26.753
X93.135 Y26.538
X93.111 Y26.314
X93.135 Y26.090
X93.205 Y25.876
X93.317 Y25.681
X93.468 Y25.514
X93.650 Y25.381
X93.856 Y25.290
X94.076 Y25.243
X94.301 Y25.243
X94.522 Y25.290
X94.727 Y25.381
X94.910 Y25.514
X95.060 Y25.681
X95.173 Y25.876
X95.242 Y26.090
X95.266 Y26.314
X95.242 Y26.538
X95.173 Y26.753
X95.060 Y26.948
X94.910 Y27.115
X94.898 Y27.124
X94.907 Y27.152
X94.922 Y27.299
X94.922 Y32.620
X94.907 Y32.766
X94.860 Y32.912
X94.783 Y33.045
X94.680 Y33.159
X94.556 Y33.250
X94.416 Y33.312
X94.267 Y33.344
X92.730 Y33.369
X92.725 Y33.369
X92.725 Y33.741
X92.382 Y33.741
X92.382 Y39.250
X92.367 Y39.396
X92.357 Y39.428
X92.395 Y39.456
X92.551 Y39.629
X92.668 Y39.831
X92.740 Y40.053
X92.764 Y40.284
X92.740 Y40.516
X92.668 Y40.738
X92.551 Y40.940
X92.395 Y41.113
X92.357 Y41.141
X92.367 Y41.173
X92.382 Y41.319
X92.382 Y48.098
X92.725 Y48.098
X92.725 Y50.251
X90.572 Y50.251
X90.572 Y49.905
X72.019 Y49.905
X72.037 Y51.873
X72.022 Y52.020
X72.010 Y52.055
X72.061 Y52.092
X72.183 Y52.227
X72.293 Y52.203
X72.879 Y52.203
X72.968 Y52.222
X73.085 Y52.092
X73.277 Y51.953
X73.493 Y51.856
X73.725 Y51.807
X73.962 Y51.807
X74.193 Y51.856
X74.410 Y51.953
X74.601 Y52.092
X74.760 Y52.268
X74.878 Y52.473
X74.951 Y52.698
X74.976 Y52.934
X74.951 Y53.169
X74.878 Y53.394
X74.760 Y53.599
X74.601 Y53.775
X74.410 Y53.915
X74.193 Y54.011
X73.962 Y54.060
X73.725 Y54.060
X73.493 Y54.011
X73.277 Y53.915
X73.085 Y53.775
X72.968 Y53.645
X72.879 Y53.664
X72.293 Y53.664
X72.183 Y53.640
X72.061 Y53.775
X71.870 Y53.915
X71.653 Y54.011
X71.422 Y54.060
X71.185 Y54.060
G0 Z3.000
G0  X17.870 Y54.060
G0  Z3.000
G01 F400 Z0
G01 F400 Z-0.100
G01F400X17.639 Y54.011
X17.422 Y53.915
X17.231 Y53.775
X17.072 Y53.599
X16.954 Y53.394
X16.881 Y53.169
X16.856 Y52.934
X16.881 Y52.698
X16.954 Y52.473
X17.072 Y52.268
X17.231 Y52.092
X17.302 Y52.040
X17.296 Y52.020
X17.280 Y51.872
X17.306 Y50.386
X17.321 Y50.241
X17.369 Y50.095
X17.440 Y49.971
X26.149 Y36.153
X26.160 Y36.042
X26.171 Y36.010
X26.132 Y35.983
X25.976 Y35.809
X25.860 Y35.607
X25.788 Y35.386
X25.763 Y35.154
X25.788 Y34.922
X25.860 Y34.700
X25.976 Y34.498
X26.132 Y34.325
X26.321 Y34.188
X26.534 Y34.093
X26.762 Y34.044
X26.995 Y34.044
X27.223 Y34.093
X27.436 Y34.188
X27.625 Y34.325
X27.781 Y34.498
X27.898 Y34.700
X27.970 Y34.922
X27.994 Y35.154
X27.970 Y35.386
X27.898 Y35.607
X27.781 Y35.809
X27.625 Y35.983
X27.587 Y36.010
X27.597 Y36.042
X27.612 Y36.189
X27.612 Y36.379
X27.597 Y36.526
X27.550 Y36.672
X27.478 Y36.795
X18.770 Y50.609
X18.748 Y51.874
X18.732 Y52.020
X18.716 Y52.070
X18.747 Y52.092
X18.905 Y52.268
X19.024 Y52.473
X19.097 Y52.698
X19.122 Y52.934
X19.097 Y53.169
X19.024 Y53.394
X18.905 Y53.599
X18.747 Y53.775
X18.555 Y53.915
X18.339 Y54.011
X18.107 Y54.060
X17.870 Y54.060
G0 Z3.000
G0  X15.330 Y54.060
G0  Z3.000
G01 F400 Z0
G01 F400 Z-0.100
G01F400X15.099 Y54.011
X14.882 Y53.915
X14.691 Y53.775
X14.532 Y53.599
X14.414 Y53.394
X14.341 Y53.169
X14.316 Y52.934
X14.341 Y52.698
X14.414 Y52.473
X14.532 Y52.268
X14.690 Y52.093
X14.721 Y52.069
X14.705 Y52.020
X14.690 Y51.874
X14.664 Y49.067
X14.680 Y48.920
X14.727 Y48.774
X14.800 Y48.648
X23.611 Y36.132
X23.620 Y36.042
X23.631 Y36.010
X23.592 Y35.983
X23.436 Y35.809
X23.320 Y35.607
X23.248 Y35.386
X23.223 Y35.154
X23.248 Y34.922
X23.320 Y34.700
X23.436 Y34.498
X23.592 Y34.325
X23.781 Y34.188
X23.994 Y34.093
X24.222 Y34.044
X24.455 Y34.044
X24.683 Y34.093
X24.896 Y34.188
X25.085 Y34.325
X25.241 Y34.498
X25.358 Y34.700
X25.430 Y34.922
X25.454 Y35.154
X25.430 Y35.386
X25.358 Y35.607
X25.241 Y35.809
X25.085 Y35.983
X25.047 Y36.010
X25.057 Y36.042
X25.072 Y36.189
X25.072 Y36.379
X25.057 Y36.526
X25.010 Y36.672
X24.937 Y36.798
X16.134 Y49.302
X16.157 Y51.873
X16.142 Y52.020
X16.135 Y52.040
X16.207 Y52.092
X16.365 Y52.268
X16.483 Y52.473
X16.557 Y52.698
X16.582 Y52.934
X16.557 Y53.169
X16.483 Y53.394
X16.365 Y53.599
X16.207 Y53.775
X16.015 Y53.915
X15.799 Y54.011
X15.567 Y54.060
X15.330 Y54.060
G0 Z3.000
G0  X22.950 Y54.060
G0  Z3.000
G01 F400 Z0
G01 F400 Z-0.100
G01F400X22.719 Y54.011
X22.502 Y53.915
X22.311 Y53.775
X22.152 Y53.599
X22.034 Y53.394
X21.961 Y53.169
X21.936 Y52.934
X21.961 Y52.698
X22.034 Y52.473
X22.152 Y52.268
X22.311 Y52.092
X22.502 Y51.953
X22.719 Y51.856
X22.863 Y51.827
X22.905 Y51.697
X31.225 Y36.192
X31.225 Y36.189
X31.240 Y36.042
X31.251 Y36.010
X31.212 Y35.983
X31.056 Y35.809
X30.940 Y35.607
X30.868 Y35.386
X30.843 Y35.154
X30.868 Y34.922
X30.940 Y34.700
X31.056 Y34.498
X31.212 Y34.325
X31.401 Y34.188
X31.614 Y34.093
X31.842 Y34.044
X32.075 Y34.044
X32.303 Y34.093
X32.516 Y34.188
X32.705 Y34.325
X32.861 Y34.498
X32.978 Y34.700
X33.050 Y34.922
X33.074 Y35.154
X33.050 Y35.386
X32.978 Y35.607
X32.861 Y35.809
X32.705 Y35.983
X32.667 Y36.010
X32.677 Y36.042
X32.692 Y36.189
X32.692 Y36.379
X32.677 Y36.526
X32.630 Y36.670
X24.242 Y52.302
X24.171 Y52.425
X24.110 Y52.493
X24.177 Y52.698
X24.202 Y52.934
X24.177 Y53.169
X24.104 Y53.394
X23.985 Y53.599
X23.827 Y53.775
X23.635 Y53.915
X23.419 Y54.011
X23.187 Y54.060
X22.950 Y54.060
G0 Z3.000
G0  X20.410 Y54.060
G0  Z3.000
G01 F400 Z0
G01 F400 Z-0.100
G01F400X20.179 Y54.011
X19.962 Y53.915
X19.771 Y53.775
X19.612 Y53.599
X19.494 Y53.394
X19.421 Y53.169
X19.396 Y52.934
X19.421 Y52.698
X19.494 Y52.473
X19.612 Y52.268
X19.763 Y52.100
X19.780 Y52.083
X19.760 Y52.020
X19.744 Y51.873
X19.744 Y51.708
X19.760 Y51.562
X19.807 Y51.416
X19.877 Y51.294
X28.689 Y36.156
X28.700 Y36.042
X28.711 Y36.010
X28.672 Y35.983
X28.516 Y35.809
X28.400 Y35.607
X28.328 Y35.386
X28.303 Y35.154
X28.328 Y34.922
X28.400 Y34.700
X28.516 Y34.498
X28.672 Y34.325
X28.861 Y34.188
X29.074 Y34.093
X29.302 Y34.044
X29.535 Y34.044
X29.763 Y34.093
X29.976 Y34.188
X30.165 Y34.325
X30.321 Y34.498
X30.438 Y34.700
X30.510 Y34.922
X30.534 Y35.154
X30.510 Y35.386
X30.438 Y35.607
X30.321 Y35.809
X30.165 Y35.983
X30.127 Y36.010
X30.137 Y36.042
X30.152 Y36.189
X30.152 Y36.379
X30.137 Y36.526
X30.090 Y36.672
X30.019 Y36.793
X21.207 Y51.914
X21.196 Y52.020
X21.195 Y52.025
X21.287 Y52.092
X21.445 Y52.268
X21.564 Y52.473
X21.637 Y52.698
X21.662 Y52.934
X21.637 Y53.169
X21.564 Y53.394
X21.445 Y53.599
X21.287 Y53.775
X21.095 Y53.915
X20.879 Y54.011
X20.647 Y54.060
X20.410 Y54.060
G0 Z3.000
G0  X12.790 Y54.060
G0  Z3.000
G01 F400 Z0
G01 F400 Z-0.100
G01F400X12.559 Y54.011
X12.342 Y53.915
X12.151 Y53.775
X11.992 Y53.599
X11.874 Y53.394
X11.801 Y53.169
X11.776 Y52.934
X11.801 Y52.698
X11.874 Y52.473
X11.992 Y52.268
X12.150 Y52.093
X12.181 Y52.069
X12.165 Y52.020
X12.150 Y51.874
X12.124 Y47.848
X12.140 Y47.701
X12.187 Y47.555
X12.260 Y47.428
X20.599 Y35.581
X20.698 Y35.471
X20.728 Y35.449
X20.708 Y35.386
X20.683 Y35.154
X20.708 Y34.922
X20.780 Y34.700
X20.896 Y34.498
X21.052 Y34.325
X21.241 Y34.188
X21.454 Y34.093
X21.682 Y34.044
X21.915 Y34.044
X22.143 Y34.093
X22.356 Y34.188
X22.545 Y34.325
X22.701 Y34.498
X22.818 Y34.700
X22.890 Y34.922
X22.914 Y35.154
X22.890 Y35.386
X22.818 Y35.607
X22.701 Y35.809
X22.545 Y35.983
X22.356 Y36.120
X22.143 Y36.214
X21.918 Y36.262
X21.877 Y36.264
X21.860 Y36.316
X21.787 Y36.442
X13.593 Y48.084
X13.617 Y51.873
X13.602 Y52.020
X13.595 Y52.040
X13.667 Y52.092
X13.825 Y52.268
X13.944 Y52.473
X14.017 Y52.698
X14.042 Y52.934
X14.017 Y53.169
X13.944 Y53.394
X13.825 Y53.599
X13.667 Y53.775
X13.475 Y53.915
X13.259 Y54.011
X13.027 Y54.060
X12.790 Y54.060
G0 Z3.000
G0  X10.250 Y54.060
G0  Z3.000
G01 F400 Z0
G01 F400 Z-0.100
G01F400X10.019 Y54.011
X9.802 Y53.915
X9.611 Y53.775
X9.452 Y53.599
X9.334 Y53.394
X9.261 Y53.169
X9.236 Y52.934
X9.261 Y52.698
X9.334 Y52.473
X9.452 Y52.268
X9.611 Y52.092
X9.662 Y52.055
X9.650 Y52.020
X9.635 Y51.874
X9.584 Y46.527
X9.600 Y46.380
X9.647 Y46.234
X9.721 Y46.107
X15.985 Y37.456
X15.985 Y36.189
X16.000 Y36.042
X16.011 Y36.010
X15.972 Y35.983
X15.816 Y35.809
X15.700 Y35.607
X15.628 Y35.386
X15.603 Y35.154
X15.628 Y34.922
X15.700 Y34.700
X15.816 Y34.498
X15.972 Y34.325
X16.161 Y34.188
X16.374 Y34.093
X16.602 Y34.044
X16.835 Y34.044
X17.063 Y34.093
X17.276 Y34.188
X17.465 Y34.325
X17.621 Y34.498
X17.738 Y34.700
X17.810 Y34.922
X17.834 Y35.154
X17.810 Y35.386
X17.738 Y35.607
X17.621 Y35.809
X17.465 Y35.983
X17.427 Y36.010
X17.437 Y36.042
X17.452 Y36.189
X17.452 Y37.700
X17.437 Y37.846
X17.390 Y37.992
X17.316 Y38.120
X11.054 Y46.768
X11.103 Y51.873
X11.087 Y52.020
X11.076 Y52.055
X11.127 Y52.092
X11.285 Y52.268
X11.404 Y52.473
X11.477 Y52.698
X11.502 Y52.934
X11.477 Y53.169
X11.404 Y53.394
X11.285 Y53.599
X11.127 Y53.775
X10.935 Y53.915
X10.719 Y54.011
X10.487 Y54.060
X10.250 Y54.060
G0 Z3.000
G0  X35.048 Y51.318
G0  Z3.000
G01 F400 Z0
G01 F400 Z-0.100
G01F400X35.048 Y51.292
X35.022 Y51.292
X35.022 Y48.682
X35.048 Y48.682
X35.048 Y48.657
X36.312 Y48.657
X36.312 Y48.682
X36.388 Y48.682
X36.388 Y48.707
X36.464 Y48.707
X36.464 Y48.733
X36.490 Y48.733
X36.490 Y48.758
X36.541 Y48.758
X36.541 Y48.784
X36.566 Y48.784
X36.566 Y48.809
X36.591 Y48.809
X36.591 Y48.834
X36.642 Y48.834
X36.642 Y48.885
X36.668 Y48.885
X36.668 Y48.911
X36.693 Y48.911
X36.693 Y48.936
X36.718 Y48.936
X36.718 Y48.987
X36.744 Y48.987
X36.744 Y49.012
X36.769 Y49.012
X36.769 Y49.088
X36.794 Y49.088
X36.794 Y49.190
X36.820 Y49.190
X36.820 Y49.743
X36.794 Y49.743
X36.794 Y49.845
X36.769 Y49.845
X36.769 Y49.895
X36.744 Y49.895
X36.744 Y49.946
X36.718 Y49.946
X36.718 Y50.003
X36.744 Y50.003
X36.744 Y50.054
X36.769 Y50.054
X36.769 Y50.130
X36.794 Y50.130
X36.794 Y50.231
X36.820 Y50.231
X36.820 Y50.784
X36.794 Y50.784
X36.794 Y50.886
X36.769 Y50.886
X36.769 Y50.937
X36.744 Y50.937
X36.744 Y50.988
X36.718 Y50.988
X36.718 Y51.038
X36.693 Y51.038
X36.693 Y51.064
X36.668 Y51.064
X36.668 Y51.089
X36.642 Y51.089
X36.642 Y51.115
X36.617 Y51.115
X36.617 Y51.140
X36.591 Y51.140
X36.591 Y51.165
X36.566 Y51.165
X36.566 Y51.191
X36.541 Y51.191
X36.541 Y51.216
X36.490 Y51.216
X36.490 Y51.242
X36.439 Y51.242
X36.439 Y51.267
X36.388 Y51.267
X36.388 Y51.292
X36.236 Y51.292
X36.236 Y51.318
X35.048 Y51.318
G0 Z3.000
G0  X37.766 Y51.318
G0  Z3.000
G01 F400 Z0
G01 F400 Z-0.100
G01F400X37.766 Y48.758
X37.791 Y48.758
X37.791 Y48.707
X37.816 Y48.707
X37.816 Y48.682
X37.867 Y48.682
X37.867 Y48.657
X38.217 Y48.657
X38.217 Y48.682
X38.268 Y48.682
X38.268 Y48.707
X38.293 Y48.707
X38.293 Y48.758
X38.319 Y48.758
X38.319 Y49.927
X38.324 Y49.927
X38.324 Y49.876
X38.350 Y49.876
X38.350 Y49.825
X38.375 Y49.825
X38.375 Y49.800
X38.401 Y49.800
X38.401 Y49.749
X38.426 Y49.749
X38.426 Y49.698
X38.451 Y49.698
X38.451 Y49.647
X38.477 Y49.647
X38.477 Y49.622
X38.502 Y49.622
X38.502 Y49.571
X38.528 Y49.571
X38.528 Y49.520
X38.553 Y49.520
X38.553 Y49.495
X38.578 Y49.495
X38.578 Y49.444
X38.604 Y49.444
X38.604 Y49.393
X38.629 Y49.393
X38.629 Y49.342
X38.654 Y49.342
X38.654 Y49.317
X38.680 Y49.317
X38.680 Y49.266
X38.705 Y49.266
X38.705 Y49.215
X38.731 Y49.215
X38.731 Y49.190
X38.756 Y49.190
X38.756 Y49.139
X38.782 Y49.139
X38.782 Y49.088
X38.807 Y49.088
X38.807 Y49.038
X38.832 Y49.038
X38.832 Y49.012
X38.858 Y49.012
X38.858 Y48.961
X38.883 Y48.961
X38.883 Y48.911
X38.909 Y48.911
X38.909 Y48.885
X38.934 Y48.885
X38.934 Y48.834
X38.959 Y48.834
X38.959 Y48.784
X38.985 Y48.784
X38.985 Y48.733
X39.010 Y48.733
X39.010 Y48.707
X39.035 Y48.707
X39.035 Y48.682
X39.086 Y48.682
X39.086 Y48.657
X39.436 Y48.657
X39.436 Y48.682
X39.487 Y48.682
X39.487 Y48.707
X39.512 Y48.707
X39.512 Y48.758
X39.538 Y48.758
X39.538 Y49.133
X39.512 Y49.133
X39.512 Y49.184
X39.487 Y49.184
X39.487 Y49.235
X39.462 Y49.235
X39.462 Y49.260
X39.436 Y49.260
X39.436 Y49.311
X39.411 Y49.311
X39.411 Y49.362
X39.385 Y49.362
X39.385 Y49.387
X39.360 Y49.387
X39.360 Y49.438
X39.334 Y49.438
X39.334 Y49.489
X39.309 Y49.489
X39.309 Y49.514
X39.284 Y49.514
X39.284 Y49.565
X39.258 Y49.565
X39.258 Y49.616
X39.233 Y49.616
X39.233 Y49.667
X39.208 Y49.667
X39.208 Y49.692
X39.182 Y49.692
X39.182 Y49.743
X39.157 Y49.743
X39.157 Y49.794
X39.131 Y49.794
X39.131 Y49.819
X39.106 Y49.819
X39.106 Y49.870
X39.081 Y49.870
X39.081 Y49.921
X39.055 Y49.921
X39.055 Y49.952
X39.081 Y49.952
X39.081 Y49.977
X39.233 Y49.977
X39.233 Y50.003
X39.284 Y50.003
X39.284 Y50.028
X39.334 Y50.028
X39.334 Y50.054
X39.360 Y50.054
X39.360 Y50.079
X39.385 Y50.079
X39.385 Y50.104
X39.411 Y50.104
X39.411 Y50.130
X39.436 Y50.130
X39.436 Y50.155
X39.462 Y50.155
X39.462 Y50.181
X39.487 Y50.181
X39.487 Y50.231
X39.512 Y50.231
X39.512 Y50.308
X39.538 Y50.308
X39.538 Y50.962
X39.512 Y50.962
X39.512 Y51.038
X39.487 Y51.038
X39.487 Y51.089
X39.462 Y51.089
X39.462 Y51.115
X39.436 Y51.115
X39.436 Y51.140
X39.411 Y51.140
X39.411 Y51.165
X39.385 Y51.165
X39.385 Y51.191
X39.360 Y51.191
X39.360 Y51.216
X39.334 Y51.216
X39.334 Y51.242
X39.284 Y51.242
X39.284 Y51.267
X39.233 Y51.267
X39.233 Y51.292
X39.106 Y51.292
X39.106 Y51.318
X37.766 Y51.318
G0 Z3.000
G0  X38.319 Y50.739
G0  Z3.000
G01 F400 Z0
G01 F400 Z-0.100
G01F400X38.909 Y50.739
X38.909 Y50.714
X38.934 Y50.714
X38.934 Y50.689
X38.959 Y50.689
X38.959 Y50.638
X38.985 Y50.638
X38.985 Y50.632
X38.959 Y50.632
X38.959 Y50.581
X38.934 Y50.581
X38.934 Y50.556
X38.909 Y50.556
X38.909 Y50.530
X38.319 Y50.530
X38.319 Y50.739
G0 Z3.000
G0  X35.601 Y50.739
G0  Z3.000
G01 F400 Z0
G01 F400 Z-0.100
G01F400X36.064 Y50.739
X36.064 Y50.714
X36.114 Y50.714
X36.114 Y50.689
X36.140 Y50.689
X36.140 Y50.663
X36.165 Y50.663
X36.165 Y50.638
X36.191 Y50.638
X36.191 Y50.612
X36.216 Y50.612
X36.216 Y50.562
X36.242 Y50.562
X36.242 Y50.454
X36.216 Y50.454
X36.216 Y50.403
X36.191 Y50.403
X36.191 Y50.378
X36.165 Y50.378
X36.165 Y50.353
X36.140 Y50.353
X36.140 Y50.327
X36.114 Y50.327
X36.114 Y50.302
X36.064 Y50.302
X36.064 Y50.276
X35.601 Y50.276
X35.601 Y50.739
G0 Z3.000
G0  X50.974 Y50.124
G0  Z3.000
G01 F400 Z0
G01 F400 Z-0.100
G01F400X50.974 Y50.099
X50.948 Y50.099
X50.948 Y50.073
X50.897 Y50.073
X50.897 Y50.022
X50.872 Y50.022
X50.872 Y49.647
X50.897 Y49.647
X50.897 Y49.622
X50.923 Y49.622
X50.923 Y49.596
X50.948 Y49.596
X50.948 Y49.571
X52.091 Y49.571
X52.091 Y49.159
X52.066 Y49.159
X52.066 Y49.133
X52.040 Y49.133
X52.040 Y49.108
X52.015 Y49.108
X52.015 Y49.083
X51.304 Y49.083
X51.304 Y49.057
X51.253 Y49.057
X51.253 Y49.032
X51.227 Y49.032
X51.227 Y49.006
X51.202 Y49.006
X51.202 Y48.981
X51.177 Y48.981
X51.177 Y48.606
X51.202 Y48.606
X51.202 Y48.580
X51.227 Y48.580
X51.227 Y48.555
X51.253 Y48.555
X51.253 Y48.530
X51.329 Y48.530
X51.329 Y48.504
X52.015 Y48.504
X52.015 Y48.479
X52.040 Y48.479
X52.040 Y48.453
X52.066 Y48.453
X52.066 Y48.428
X52.091 Y48.428
X52.091 Y48.041
X51.024 Y48.041
X51.024 Y48.016
X50.948 Y48.016
X50.948 Y47.990
X50.923 Y47.990
X50.923 Y47.965
X50.897 Y47.965
X50.897 Y47.940
X50.872 Y47.940
X50.872 Y47.564
X50.897 Y47.564
X50.897 Y47.539
X50.923 Y47.539
X50.923 Y47.514
X50.948 Y47.514
X50.948 Y47.488
X50.999 Y47.488
X50.999 Y47.463
X52.390 Y47.463
X52.390 Y47.488
X52.466 Y47.488
X52.466 Y47.514
X52.517 Y47.514
X52.517 Y47.539
X52.543 Y47.539
X52.543 Y47.564
X52.568 Y47.564
X52.568 Y47.590
X52.593 Y47.590
X52.593 Y47.615
X52.619 Y47.615
X52.619 Y47.666
X52.644 Y47.666
X52.644 Y48.752
X52.619 Y48.752
X52.619 Y48.860
X52.644 Y48.860
X52.644 Y49.921
X52.619 Y49.921
X52.619 Y49.972
X52.593 Y49.972
X52.593 Y49.997
X52.568 Y49.997
X52.568 Y50.022
X52.543 Y50.022
X52.543 Y50.048
X52.517 Y50.048
X52.517 Y50.073
X52.466 Y50.073
X52.466 Y50.099
X52.416 Y50.099
X52.416 Y50.124
X50.974 Y50.124
G0 Z3.000
G0  X46.529 Y50.124
G0  Z3.000
G01 F400 Z0
G01 F400 Z-0.100
G01F400X46.529 Y50.099
X46.478 Y50.099
X46.478 Y50.073
X46.452 Y50.073
X46.452 Y50.022
X46.427 Y50.022
X46.427 Y49.647
X46.452 Y49.647
X46.452 Y49.622
X46.478 Y49.622
X46.478 Y49.596
X46.503 Y49.596
X46.503 Y49.571
X47.646 Y49.571
X47.646 Y49.184
X47.621 Y49.184
X47.621 Y49.133
X47.595 Y49.133
X47.595 Y49.108
X47.570 Y49.108
X47.570 Y49.083
X46.833 Y49.083
X46.833 Y49.057
X46.782 Y49.057
X46.782 Y49.032
X46.757 Y49.032
X46.757 Y48.981
X46.732 Y48.981
X46.732 Y48.606
X46.757 Y48.606
X46.757 Y48.555
X46.808 Y48.555
X46.808 Y48.530
X46.884 Y48.530
X46.884 Y48.504
X47.570 Y48.504
X47.570 Y48.479
X47.595 Y48.479
X47.595 Y48.453
X47.621 Y48.453
X47.621 Y48.403
X47.646 Y48.403
X47.646 Y48.041
X46.579 Y48.041
X46.579 Y48.016
X46.503 Y48.016
X46.503 Y47.990
X46.478 Y47.990
X46.478 Y47.965
X46.452 Y47.965
X46.452 Y47.940
X46.427 Y47.940
X46.427 Y47.564
X46.452 Y47.564
X46.452 Y47.514
X46.503 Y47.514
X46.503 Y47.488
X46.529 Y47.488
X46.529 Y47.463
X47.945 Y47.463
X47.945 Y47.488
X48.021 Y47.488
X48.021 Y47.514
X48.072 Y47.514
X48.072 Y47.539
X48.098 Y47.539
X48.098 Y47.564
X48.123 Y47.564
X48.123 Y47.590
X48.148 Y47.590
X48.148 Y47.641
X48.174 Y47.641
X48.174 Y47.691
X48.199 Y47.691
X48.199 Y48.727
X48.174 Y48.727
X48.174 Y48.860
X48.199 Y48.860
X48.199 Y49.895
X48.174 Y49.895
X48.174 Y49.972
X48.148 Y49.972
X48.148 Y49.997
X48.123 Y49.997
X48.123 Y50.022
X48.098 Y50.022
X48.098 Y50.048
X48.072 Y50.048
X48.072 Y50.073
X48.021 Y50.073
X48.021 Y50.099
X47.945 Y50.099
X47.945 Y50.124
X46.529 Y50.124
G0 Z3.000
G0  X35.601 Y49.698
G0  Z3.000
G01 F400 Z0
G01 F400 Z-0.100
G01F400X36.064 Y49.698
X36.064 Y49.673
X36.114 Y49.673
X36.114 Y49.647
X36.140 Y49.647
X36.140 Y49.622
X36.165 Y49.622
X36.165 Y49.596
X36.191 Y49.596
X36.191 Y49.571
X36.216 Y49.571
X36.216 Y49.520
X36.242 Y49.520
X36.242 Y49.413
X36.216 Y49.413
X36.216 Y49.362
X36.191 Y49.362
X36.191 Y49.337
X36.165 Y49.337
X36.165 Y49.311
X36.140 Y49.311
X36.140 Y49.286
X36.114 Y49.286
X36.114 Y49.260
X36.064 Y49.260
X36.064 Y49.235
X35.988 Y49.235
X35.988 Y49.210
X35.601 Y49.210
X35.601 Y49.698
G0 Z3.000
G0  X48.738 Y49.464
G0  Z3.000
G01 F400 Z0
G01 F400 Z-0.100
G01F400X48.738 Y49.438
X48.713 Y49.438
X48.713 Y49.413
X48.688 Y49.413
X48.688 Y49.387
X48.662 Y49.387
X48.662 Y49.337
X48.637 Y49.337
X48.637 Y48.784
X48.662 Y48.784
X48.662 Y48.707
X48.688 Y48.707
X48.688 Y48.657
X48.713 Y48.657
X48.713 Y48.580
X48.738 Y48.580
X48.738 Y48.530
X48.764 Y48.530
X48.764 Y48.479
X48.789 Y48.479
X48.789 Y48.403
X48.815 Y48.403
X48.815 Y48.352
X48.840 Y48.352
X48.840 Y48.301
X48.865 Y48.301
X48.865 Y48.250
X48.891 Y48.250
X48.891 Y48.174
X48.916 Y48.174
X48.916 Y48.123
X48.942 Y48.123
X48.942 Y48.072
X48.967 Y48.072
X48.967 Y47.996
X48.992 Y47.996
X48.992 Y47.945
X49.018 Y47.945
X49.018 Y47.895
X49.043 Y47.895
X49.043 Y47.844
X49.069 Y47.844
X49.069 Y47.768
X49.094 Y47.768
X49.094 Y47.717
X49.119 Y47.717
X49.119 Y47.666
X49.145 Y47.666
X49.145 Y47.590
X49.170 Y47.590
X49.170 Y47.539
X49.196 Y47.539
X49.196 Y47.514
X49.221 Y47.514
X49.221 Y47.488
X49.272 Y47.488
X49.272 Y47.463
X49.799 Y47.463
X49.799 Y47.488
X49.850 Y47.488
X49.850 Y47.514
X49.876 Y47.514
X49.876 Y47.539
X49.901 Y47.539
X49.901 Y47.590
X49.926 Y47.590
X49.926 Y47.666
X49.952 Y47.666
X49.952 Y47.717
X49.977 Y47.717
X49.977 Y47.768
X50.003 Y47.768
X50.003 Y47.818
X50.028 Y47.818
X50.028 Y47.895
X50.053 Y47.895
X50.053 Y47.945
X50.079 Y47.945
X50.079 Y47.996
X50.104 Y47.996
X50.104 Y48.072
X50.130 Y48.072
X50.130 Y48.123
X50.155 Y48.123
X50.155 Y48.174
X50.180 Y48.174
X50.180 Y48.225
X50.206 Y48.225
X50.206 Y48.301
X50.231 Y48.301
X50.231 Y48.352
X50.257 Y48.352
X50.257 Y48.403
X50.282 Y48.403
X50.282 Y48.479
X50.307 Y48.479
X50.307 Y48.530
X50.333 Y48.530
X50.333 Y48.580
X50.358 Y48.580
X50.358 Y48.631
X50.384 Y48.631
X50.384 Y48.707
X50.409 Y48.707
X50.409 Y48.758
X50.434 Y48.758
X50.434 Y49.362
X50.409 Y49.362
X50.409 Y49.387
X50.384 Y49.387
X50.384 Y49.438
X50.333 Y49.438
X50.333 Y49.464
X49.958 Y49.464
X49.958 Y49.438
X49.932 Y49.438
X49.932 Y49.413
X49.907 Y49.413
X49.907 Y49.387
X49.881 Y49.387
X49.881 Y49.083
X49.856 Y49.083
X49.856 Y49.032
X49.831 Y49.032
X49.831 Y48.956
X49.805 Y48.956
X49.805 Y48.905
X49.780 Y48.905
X49.780 Y48.854
X49.754 Y48.854
X49.754 Y48.803
X49.729 Y48.803
X49.729 Y48.727
X49.704 Y48.727
X49.704 Y48.676
X49.678 Y48.676
X49.678 Y48.625
X49.653 Y48.625
X49.653 Y48.549
X49.627 Y48.549
X49.627 Y48.498
X49.602 Y48.498
X49.602 Y48.448
X49.577 Y48.448
X49.577 Y48.397
X49.551 Y48.397
X49.551 Y48.321
X49.520 Y48.321
X49.520 Y48.397
X49.495 Y48.397
X49.495 Y48.448
X49.469 Y48.448
X49.469 Y48.498
X49.444 Y48.498
X49.444 Y48.575
X49.418 Y48.575
X49.418 Y48.625
X49.393 Y48.625
X49.393 Y48.676
X49.367 Y48.676
X49.367 Y48.752
X49.342 Y48.752
X49.342 Y48.803
X49.317 Y48.803
X49.317 Y48.854
X49.291 Y48.854
X49.291 Y48.905
X49.266 Y48.905
X49.266 Y48.981
X49.241 Y48.981
X49.241 Y49.032
X49.215 Y49.032
X49.215 Y49.337
X49.190 Y49.337
X49.190 Y49.387
X49.164 Y49.387
X49.164 Y49.438
X49.114 Y49.438
X49.114 Y49.464
X48.738 Y49.464
G0 Z3.000
G0  X87.994 Y41.399
G0  Z3.000
G01 F400 Z0
G01 F400 Z-0.100
G01F400X87.994 Y39.170
X88.375 Y39.170
X88.375 Y33.648
X88.390 Y33.502
X88.400 Y33.474
X88.388 Y33.465
X88.281 Y33.346
X88.169 Y33.369
X88.028 Y33.369
X86.491 Y33.344
X86.342 Y33.312
X86.202 Y33.250
X86.077 Y33.159
X85.975 Y33.045
X85.898 Y32.912
X85.850 Y32.766
X85.835 Y32.620
X85.835 Y24.965
X85.403 Y24.965
X85.403 Y22.634
X86.354 Y22.634
X86.447 Y22.615
X86.691 Y22.615
X86.783 Y22.634
X87.734 Y22.634
X87.734 Y24.965
X87.302 Y24.965
X87.302 Y31.894
X88.171 Y31.909
X88.319 Y31.940
X88.388 Y31.864
X88.570 Y31.731
X88.776 Y31.640
X88.996 Y31.593
X89.221 Y31.593
X89.442 Y31.640
X89.647 Y31.731
X89.830 Y31.864
X89.980 Y32.031
X90.093 Y32.226
X90.162 Y32.440
X90.186 Y32.664
X90.162 Y32.888
X90.093 Y33.103
X89.980 Y33.298
X89.830 Y33.465
X89.818 Y33.474
X89.827 Y33.502
X89.842 Y33.648
X89.842 Y39.170
X90.223 Y39.170
X90.223 Y41.399
X87.994 Y41.399
G0 Z3.000
G0  X6.446 Y40.035
G0  Z3.000
G01 F400 Z0
G01 F400 Z-0.100
G01F400X6.226 Y39.988
X6.020 Y39.897
X5.838 Y39.764
X5.687 Y39.597
X5.575 Y39.402
X5.505 Y39.188
X5.481 Y38.964
X5.505 Y38.740
X5.575 Y38.525
X5.687 Y38.330
X5.837 Y38.164
X5.856 Y38.149
X5.840 Y38.100
X5.825 Y37.954
X5.825 Y8.596
X5.177 Y8.596
X5.177 Y5.832
X7.941 Y5.832
X7.941 Y6.469
X7.980 Y6.401
X8.173 Y6.186
X8.407 Y6.016
X8.671 Y5.899
X8.954 Y5.838
X9.243 Y5.838
X9.526 Y5.899
X9.790 Y6.016
X10.024 Y6.186
X10.217 Y6.401
X10.265 Y6.483
X10.472 Y6.483
X10.520 Y6.401
X10.713 Y6.186
X10.947 Y6.016
X11.211 Y5.899
X11.494 Y5.838
X11.783 Y5.838
X12.066 Y5.899
X12.330 Y6.016
X12.564 Y6.186
X12.757 Y6.401
X12.805 Y6.483
X13.012 Y6.483
X13.060 Y6.401
X13.253 Y6.186
X13.487 Y6.016
X13.751 Y5.899
X14.034 Y5.838
X14.323 Y5.838
X14.606 Y5.899
X14.870 Y6.016
X15.104 Y6.186
X15.297 Y6.401
X15.345 Y6.483
X15.552 Y6.483
X15.600 Y6.401
X15.793 Y6.186
X15.985 Y6.047
X15.985 Y2.127
X16.000 Y1.981
X16.048 Y1.835
X16.125 Y1.702
X16.227 Y1.588
X16.352 Y1.498
X16.492 Y1.435
X16.642 Y1.403
X81.515 Y1.403
X81.665 Y1.435
X81.805 Y1.498
X81.929 Y1.588
X82.032 Y1.702
X82.109 Y1.835
X82.156 Y1.981
X82.172 Y2.127
X82.273 Y17.380
X82.258 Y17.526
X82.210 Y17.672
X82.134 Y17.805
X82.031 Y17.919
X81.907 Y18.010
X81.766 Y18.072
X81.616 Y18.104
X72.026 Y18.104
X72.046 Y19.104
X72.053 Y19.109
X72.205 Y19.277
X72.318 Y19.473
X72.388 Y19.689
X72.412 Y19.914
X72.388 Y20.139
X72.318 Y20.354
X72.205 Y20.550
X72.053 Y20.718
X71.870 Y20.851
X71.663 Y20.943
X71.442 Y20.990
X71.216 Y20.990
X70.994 Y20.943
X70.787 Y20.851
X70.604 Y20.718
X70.453 Y20.550
X70.340 Y20.354
X70.270 Y20.139
X70.246 Y19.914
X70.270 Y19.689
X70.340 Y19.473
X70.453 Y19.276
X70.580 Y19.141
X70.544 Y17.368
X70.560 Y17.221
X70.607 Y17.075
X70.684 Y16.942
X70.787 Y16.828
X70.911 Y16.738
X71.051 Y16.675
X71.201 Y16.643
X80.801 Y16.643
X80.709 Y2.864
X72.016 Y2.864
X72.037 Y6.082
X72.461 Y6.082
X72.461 Y8.346
X70.197 Y8.346
X70.197 Y6.082
X70.569 Y6.082
X70.559 Y4.426
X70.549 Y2.864
X59.316 Y2.864
X59.337 Y6.082
X59.761 Y6.082
X59.761 Y8.346
X57.497 Y8.346
X57.497 Y6.082
X57.869 Y6.082
X57.849 Y2.864
X17.452 Y2.864
X17.452 Y6.047
X17.644 Y6.186
X17.837 Y6.401
X17.982 Y6.651
X18.071 Y6.926
X18.102 Y7.214
X18.071 Y7.501
X17.982 Y7.776
X17.837 Y8.026
X17.644 Y8.241
X17.410 Y8.411
X17.146 Y8.529
X16.863 Y8.589
X16.574 Y8.589
X16.291 Y8.529
X16.027 Y8.411
X15.793 Y8.241
X15.600 Y8.026
X15.552 Y7.944
X15.345 Y7.944
X15.297 Y8.026
X15.104 Y8.241
X14.870 Y8.411
X14.606 Y8.529
X14.323 Y8.589
X14.034 Y8.589
X13.751 Y8.529
X13.487 Y8.411
X13.253 Y8.241
X13.060 Y8.026
X13.012 Y7.944
X12.805 Y7.944
X12.757 Y8.026
X12.564 Y8.241
X12.330 Y8.411
X12.066 Y8.529
X11.783 Y8.589
X11.494 Y8.589
X11.211 Y8.529
X10.947 Y8.411
X10.713 Y8.241
X10.520 Y8.026
X10.472 Y7.944
X10.265 Y7.944
X10.217 Y8.026
X10.024 Y8.241
X9.790 Y8.411
X9.526 Y8.529
X9.243 Y8.589
X8.954 Y8.589
X8.671 Y8.529
X8.407 Y8.411
X8.173 Y8.241
X7.980 Y8.026
X7.941 Y7.959
X7.941 Y8.596
X7.292 Y8.596
X7.292 Y11.563
X13.214 Y11.563
X13.323 Y11.586
X13.432 Y11.465
X13.621 Y11.328
X13.834 Y11.233
X14.062 Y11.184
X14.295 Y11.184
X14.523 Y11.233
X14.736 Y11.328
X14.925 Y11.465
X15.081 Y11.638
X15.198 Y11.840
X15.270 Y12.062
X15.294 Y12.294
X15.270 Y12.526
X15.198 Y12.747
X15.081 Y12.949
X14.925 Y13.123
X14.736 Y13.260
X14.523 Y13.354
X14.295 Y13.403
X14.062 Y13.403
X13.834 Y13.354
X13.621 Y13.260
X13.431 Y13.122
X13.326 Y13.000
X13.214 Y13.024
X7.292 Y13.024
X7.292 Y37.954
X7.277 Y38.100
X7.261 Y38.150
X7.280 Y38.163
X7.430 Y38.330
X7.543 Y38.525
X7.612 Y38.740
X7.636 Y38.964
X7.612 Y39.188
X7.543 Y39.402
X7.430 Y39.597
X7.280 Y39.764
X7.097 Y39.897
X6.892 Y39.988
X6.671 Y40.035
X6.446 Y40.035
G0 Z3.000
G0  X14.062 Y36.263
G0  Z3.000
G01 F400 Z0
G01 F400 Z-0.100
G01F400X13.834 Y36.214
X13.621 Y36.120
X13.432 Y35.983
X13.276 Y35.809
X13.160 Y35.607
X13.088 Y35.386
X13.063 Y35.154
X13.088 Y34.922
X13.160 Y34.700
X13.276 Y34.498
X13.432 Y34.325
X13.471 Y34.297
X13.460 Y34.265
X13.445 Y34.119
X13.445 Y21.228
X13.460 Y21.082
X13.508 Y20.936
X13.585 Y20.803
X13.687 Y20.689
X13.812 Y20.598
X13.952 Y20.536
X14.102 Y20.504
X60.486 Y20.504
X60.486 Y10.484
X50.881 Y10.484
X50.731 Y10.452
X50.591 Y10.390
X50.467 Y10.299
X50.364 Y10.185
X50.287 Y10.052
X50.240 Y9.906
X50.224 Y9.759
X50.250 Y8.273
X50.265 Y8.127
X50.281 Y8.078
X50.251 Y8.055
X50.092 Y7.879
X49.974 Y7.674
X49.901 Y7.449
X49.876 Y7.214
X49.901 Y6.978
X49.974 Y6.753
X50.092 Y6.548
X50.251 Y6.372
X50.442 Y6.233
X50.659 Y6.136
X50.890 Y6.087
X51.127 Y6.087
X51.359 Y6.136
X51.575 Y6.233
X51.767 Y6.372
X51.925 Y6.548
X52.044 Y6.753
X52.117 Y6.978
X52.142 Y7.214
X52.117 Y7.449
X52.044 Y7.674
X51.925 Y7.879
X51.767 Y8.055
X51.695 Y8.107
X51.702 Y8.128
X51.717 Y8.275
X51.704 Y9.023
X60.733 Y9.023
X60.733 Y8.253
X60.602 Y8.195
X60.411 Y8.055
X60.252 Y7.879
X60.134 Y7.674
X60.061 Y7.449
X60.036 Y7.214
X60.061 Y6.978
X60.134 Y6.753
X60.252 Y6.548
X60.411 Y6.372
X60.602 Y6.233
X60.819 Y6.136
X60.931 Y6.112
X60.933 Y6.096
X60.979 Y5.953
X61.773 Y4.367
X61.845 Y4.242
X61.947 Y4.128
X62.072 Y4.038
X62.212 Y3.975
X62.362 Y3.943
X66.275 Y3.943
X66.425 Y3.975
X66.565 Y4.038
X66.689 Y4.128
X66.792 Y4.242
X66.864 Y4.367
X69.192 Y9.023
X73.097 Y9.023
X73.110 Y8.273
X73.125 Y8.127
X73.141 Y8.078
X73.111 Y8.055
X72.952 Y7.879
X72.834 Y7.674
X72.761 Y7.449
X72.736 Y7.214
X72.761 Y6.978
X72.834 Y6.753
X72.952 Y6.548
X73.110 Y6.373
X73.141 Y6.349
X73.125 Y6.300
X73.110 Y6.154
X73.084 Y4.668
X73.100 Y4.521
X73.147 Y4.375
X73.224 Y4.242
X73.327 Y4.128
X73.451 Y4.038
X73.591 Y3.975
X73.741 Y3.943
X78.975 Y3.943
X79.125 Y3.975
X79.265 Y4.038
X79.389 Y4.128
X79.492 Y4.242
X79.569 Y4.375
X79.616 Y4.521
X79.632 Y4.667
X79.632 Y14.840
X79.616 Y14.986
X79.569 Y15.132
X79.492 Y15.265
X79.389 Y15.379
X79.265 Y15.470
X79.125 Y15.532
X78.975 Y15.564
X69.472 Y15.564
X69.472 Y21.723
X70.537 Y21.723
X70.604 Y21.649
X70.787 Y21.516
X70.994 Y21.424
X71.216 Y21.377
X71.442 Y21.377
X71.663 Y21.424
X71.870 Y21.516
X72.053 Y21.649
X72.205 Y21.817
X72.318 Y22.013
X72.388 Y22.229
X72.412 Y22.454
X72.388 Y22.679
X72.318 Y22.894
X72.205 Y23.090
X72.053 Y23.258
X71.870 Y23.391
X71.663 Y23.483
X71.442 Y23.530
X71.216 Y23.530
X70.994 Y23.483
X70.787 Y23.391
X70.604 Y23.258
X70.537 Y23.184
X68.661 Y23.184
X68.511 Y23.152
X68.371 Y23.090
X68.246 Y22.999
X68.144 Y22.885
X68.067 Y22.752
X68.020 Y22.606
X68.004 Y22.460
X68.004 Y14.827
X68.020 Y14.681
X68.067 Y14.535
X68.144 Y14.402
X68.246 Y14.288
X68.371 Y14.198
X68.511 Y14.135
X68.661 Y14.103
X78.164 Y14.103
X78.164 Y5.404
X74.564 Y5.404
X74.577 Y6.152
X74.562 Y6.300
X74.555 Y6.320
X74.627 Y6.372
X74.785 Y6.548
X74.904 Y6.753
X74.977 Y6.978
X75.002 Y7.214
X74.977 Y7.449
X74.904 Y7.674
X74.785 Y7.879
X74.627 Y8.055
X74.555 Y8.107
X74.562 Y8.128
X74.577 Y8.275
X74.552 Y9.761
X74.536 Y9.906
X74.489 Y10.052
X74.412 Y10.185
X74.309 Y10.299
X74.185 Y10.390
X74.045 Y10.452
X73.895 Y10.484
X68.661 Y10.484
X68.511 Y10.452
X68.371 Y10.390
X68.246 Y10.299
X68.144 Y10.185
X68.072 Y10.060
X65.743 Y5.404
X62.893 Y5.404
X62.318 Y6.555
X62.244 Y6.682
X62.193 Y6.735
X62.204 Y6.753
X62.277 Y6.978
X62.302 Y7.214
X62.277 Y7.449
X62.204 Y7.674
X62.085 Y7.879
X61.927 Y8.055
X61.735 Y8.195
X61.598 Y8.255
X61.598 Y9.126
X61.711 Y9.208
X61.814 Y9.322
X61.890 Y9.455
X61.938 Y9.601
X61.953 Y9.747
X61.953 Y21.236
X61.928 Y22.715
X61.912 Y22.862
X61.890 Y22.924
X62.040 Y23.090
X62.153 Y23.285
X62.222 Y23.500
X62.246 Y23.724
X62.222 Y23.948
X62.153 Y24.162
X62.040 Y24.357
X61.890 Y24.524
X61.707 Y24.657
X61.502 Y24.748
X61.281 Y24.795
X61.056 Y24.795
X60.836 Y24.748
X60.630 Y24.657
X60.448 Y24.524
X60.297 Y24.357
X60.185 Y24.162
X60.115 Y23.948
X60.091 Y23.724
X60.115 Y23.500
X60.185 Y23.285
X60.297 Y23.090
X60.448 Y22.923
X60.487 Y22.895
X60.476 Y22.860
X60.460 Y22.713
X60.473 Y21.965
X14.912 Y21.965
X14.912 Y34.119
X14.897 Y34.265
X14.887 Y34.297
X14.925 Y34.325
X15.081 Y34.498
X15.198 Y34.700
X15.270 Y34.922
X15.294 Y35.154
X15.270 Y35.386
X15.198 Y35.607
X15.081 Y35.809
X14.925 Y35.983
X14.736 Y36.120
X14.523 Y36.214
X14.295 Y36.263
X14.062 Y36.263
G0 Z3.000
G0  X19.142 Y36.263
G0  Z3.000
G01 F400 Z0
G01 F400 Z-0.100
G01F400X18.914 Y36.214
X18.701 Y36.120
X18.512 Y35.983
X18.356 Y35.809
X18.240 Y35.607
X18.168 Y35.386
X18.143 Y35.154
X18.168 Y34.922
X18.240 Y34.700
X18.356 Y34.498
X18.512 Y34.325
X18.701 Y34.188
X18.914 Y34.093
X19.142 Y34.044
X19.375 Y34.044
X19.603 Y34.093
X19.816 Y34.188
X20.005 Y34.325
X20.161 Y34.498
X20.278 Y34.700
X20.350 Y34.922
X20.374 Y35.154
X20.350 Y35.386
X20.278 Y35.607
X20.161 Y35.809
X20.005 Y35.983
X19.816 Y36.120
X19.603 Y36.214
X19.375 Y36.263
X19.142 Y36.263
G0 Z3.000
G0  X34.382 Y36.263
G0  Z3.000
G01 F400 Z0
G01 F400 Z-0.100
G01F400X34.154 Y36.214
X33.941 Y36.120
X33.752 Y35.983
X33.596 Y35.809
X33.480 Y35.607
X33.408 Y35.386
X33.383 Y35.154
X33.408 Y34.922
X33.480 Y34.700
X33.596 Y34.498
X33.752 Y34.325
X33.791 Y34.297
X33.780 Y34.265
X33.765 Y34.119
X33.765 Y32.582
X33.780 Y32.436
X33.828 Y32.290
X33.905 Y32.157
X34.007 Y32.042
X34.132 Y31.952
X34.272 Y31.890
X34.422 Y31.858
X34.563 Y31.858
X56.216 Y31.883
X56.366 Y31.915
X56.507 Y31.978
X56.631 Y32.068
X56.734 Y32.182
X56.810 Y32.315
X56.858 Y32.461
X56.873 Y32.608
X56.848 Y34.145
X56.832 Y34.292
X56.810 Y34.354
X56.960 Y34.520
X57.073 Y34.715
X57.142 Y34.930
X57.166 Y35.154
X57.142 Y35.378
X57.073 Y35.592
X56.960 Y35.787
X56.809 Y35.954
X56.627 Y36.087
X56.422 Y36.178
X56.201 Y36.225
X55.976 Y36.225
X55.756 Y36.178
X55.550 Y36.087
X55.368 Y35.954
X55.217 Y35.787
X55.105 Y35.592
X55.035 Y35.378
X55.011 Y35.154
X55.035 Y34.930
X55.105 Y34.715
X55.217 Y34.520
X55.368 Y34.353
X55.407 Y34.325
X55.396 Y34.290
X55.380 Y34.143
X55.394 Y33.343
X35.232 Y33.320
X35.232 Y34.119
X35.217 Y34.265
X35.207 Y34.297
X35.245 Y34.325
X35.401 Y34.498
X35.518 Y34.700
X35.590 Y34.922
X35.614 Y35.154
X35.590 Y35.386
X35.518 Y35.607
X35.401 Y35.809
X35.245 Y35.983
X35.056 Y36.120
X34.843 Y36.214
X34.615 Y36.263
X34.382 Y36.263
G0 Z3.000
G0  X74.215 Y27.366
G0  Z3.000
G01 F400 Z0
G01 F400 Z-0.100
G01F400X74.215 Y27.340
X74.164 Y27.340
X74.164 Y27.315
X74.113 Y27.315
X74.113 Y27.289
X74.088 Y27.289
X74.088 Y27.239
X74.062 Y27.239
X74.062 Y27.188
X74.037 Y27.188
X74.037 Y26.451
X73.275 Y26.451
X73.275 Y26.426
X73.224 Y26.426
X73.224 Y26.400
X73.199 Y26.400
X73.199 Y26.375
X73.173 Y26.375
X73.173 Y26.324
X73.148 Y26.324
X73.148 Y25.873
X73.173 Y25.873
X73.173 Y25.822
X73.199 Y25.822
X73.199 Y25.797
X73.249 Y25.797
X73.249 Y25.771
X73.300 Y25.771
X73.300 Y25.746
X74.037 Y25.746
X74.037 Y25.009
X74.062 Y25.009
X74.062 Y24.958
X74.088 Y24.958
X74.088 Y24.908
X74.113 Y24.908
X74.113 Y24.882
X74.164 Y24.882
X74.164 Y24.857
X74.215 Y24.857
X74.215 Y24.831
X74.564 Y24.831
X74.564 Y24.857
X74.641 Y24.857
X74.641 Y24.882
X74.666 Y24.882
X74.666 Y24.908
X74.691 Y24.908
X74.691 Y24.933
X74.717 Y24.933
X74.717 Y24.984
X74.742 Y24.984
X74.742 Y25.746
X75.504 Y25.746
X75.504 Y25.771
X75.555 Y25.771
X75.555 Y25.797
X75.580 Y25.797
X75.580 Y25.822
X75.606 Y25.822
X75.606 Y25.847
X75.631 Y25.847
X75.631 Y25.898
X75.657 Y25.898
X75.657 Y26.299
X75.631 Y26.299
X75.631 Y26.350
X75.606 Y26.350
X75.606 Y26.375
X75.580 Y26.375
X75.580 Y26.400
X75.555 Y26.400
X75.555 Y26.426
X75.529 Y26.426
X75.529 Y26.451
X74.767 Y26.451
X74.767 Y26.477
X74.742 Y26.477
X74.742 Y27.239
X74.717 Y27.239
X74.717 Y27.264
X74.691 Y27.264
X74.691 Y27.289
X74.666 Y27.289
X74.666 Y27.315
X74.641 Y27.315
X74.641 Y27.340
X74.590 Y27.340
X74.590 Y27.366
X74.215 Y27.366
G0 Z3.000
G0  X76.450 Y24.114
G0  Z3.000
G01 F400 Z0
G01 F400 Z-0.100
G01F400X76.450 Y24.089
X76.399 Y24.089
X76.399 Y24.038
X76.374 Y24.038
X76.374 Y23.987
X76.348 Y23.987
X76.348 Y23.561
X76.374 Y23.561
X76.374 Y23.511
X76.399 Y23.511
X76.399 Y23.485
X76.424 Y23.485
X76.424 Y23.460
X76.450 Y23.460
X76.450 Y23.434
X76.977 Y23.434
X76.977 Y23.460
X77.003 Y23.460
X77.003 Y23.485
X77.028 Y23.485
X77.028 Y23.511
X77.053 Y23.511
X77.053 Y23.561
X77.079 Y23.561
X77.079 Y24.013
X77.053 Y24.013
X77.053 Y24.064
X77.028 Y24.064
X77.028 Y24.089
X77.003 Y24.089
X77.003 Y24.114
X76.450 Y24.114
G0 Z3.000
G0  X73.910 Y23.987
G0  Z3.000
G01 F400 Z0
G01 F400 Z-0.100
G01F400X73.910 Y23.962
X73.859 Y23.962
X73.859 Y23.937
X73.834 Y23.937
X73.834 Y23.911
X73.783 Y23.911
X73.783 Y23.886
X73.757 Y23.886
X73.757 Y23.835
X73.732 Y23.835
X73.732 Y23.810
X73.707 Y23.810
X73.707 Y23.733
X73.681 Y23.733
X73.681 Y23.307
X73.707 Y23.307
X73.707 Y23.231
X73.732 Y23.231
X73.732 Y23.180
X73.757 Y23.180
X73.757 Y23.155
X73.783 Y23.155
X73.783 Y23.130
X73.808 Y23.130
X73.808 Y23.079
X73.834 Y23.079
X73.834 Y23.053
X73.859 Y23.053
X73.859 Y23.028
X73.884 Y23.028
X73.884 Y22.977
X73.910 Y22.977
X73.910 Y22.952
X73.935 Y22.952
X73.935 Y22.926
X73.961 Y22.926
X73.961 Y22.901
X73.986 Y22.901
X73.986 Y22.850
X74.011 Y22.850
X74.011 Y22.825
X74.037 Y22.825
X74.037 Y22.799
X74.062 Y22.799
X74.062 Y22.749
X74.088 Y22.749
X74.088 Y22.723
X74.113 Y22.723
X74.113 Y22.698
X74.138 Y22.698
X74.138 Y22.672
X74.164 Y22.672
X74.164 Y22.622
X74.189 Y22.622
X74.189 Y22.596
X74.215 Y22.596
X74.215 Y22.571
X74.240 Y22.571
X74.240 Y22.520
X74.265 Y22.520
X74.265 Y22.495
X74.291 Y22.495
X74.291 Y22.469
X74.316 Y22.469
X74.316 Y22.444
X74.342 Y22.444
X74.342 Y22.393
X74.367 Y22.393
X74.367 Y22.368
X74.392 Y22.368
X74.392 Y22.342
X74.418 Y22.342
X74.418 Y22.291
X74.443 Y22.291
X74.443 Y22.266
X74.469 Y22.266
X74.469 Y22.241
X74.494 Y22.241
X74.494 Y22.215
X74.519 Y22.215
X74.519 Y22.164
X74.545 Y22.164
X74.545 Y22.139
X74.570 Y22.139
X74.570 Y22.114
X74.596 Y22.114
X74.596 Y22.063
X74.621 Y22.063
X74.621 Y22.037
X74.646 Y22.037
X74.646 Y22.012
X74.672 Y22.012
X74.672 Y21.987
X74.697 Y21.987
X74.697 Y21.936
X74.722 Y21.936
X74.722 Y21.910
X74.748 Y21.910
X74.748 Y21.905
X74.285 Y21.905
X74.285 Y21.930
X74.260 Y21.930
X74.260 Y21.981
X74.234 Y21.981
X74.234 Y22.082
X74.209 Y22.082
X74.209 Y22.108
X74.183 Y22.108
X74.183 Y22.133
X74.158 Y22.133
X74.158 Y22.159
X73.757 Y22.159
X73.757 Y22.133
X73.732 Y22.133
X73.732 Y22.108
X73.707 Y22.108
X73.707 Y22.082
X73.681 Y22.082
X73.681 Y21.656
X73.707 Y21.656
X73.707 Y21.580
X73.732 Y21.580
X73.732 Y21.529
X73.757 Y21.529
X73.757 Y21.504
X73.783 Y21.504
X73.783 Y21.479
X73.808 Y21.479
X73.808 Y21.453
X73.834 Y21.453
X73.834 Y21.428
X73.859 Y21.428
X73.859 Y21.402
X73.910 Y21.402
X73.910 Y21.377
X73.986 Y21.377
X73.986 Y21.352
X75.225 Y21.352
X75.225 Y21.377
X75.276 Y21.377
X75.276 Y21.402
X75.326 Y21.402
X75.326 Y21.428
X75.352 Y21.428
X75.352 Y21.453
X75.377 Y21.453
X75.377 Y21.504
X75.403 Y21.504
X75.403 Y21.529
X75.428 Y21.529
X75.428 Y21.606
X75.453 Y21.606
X75.453 Y22.057
X75.428 Y22.057
X75.428 Y22.108
X75.403 Y22.108
X75.403 Y22.159
X75.377 Y22.159
X75.377 Y22.184
X75.352 Y22.184
X75.352 Y22.209
X75.326 Y22.209
X75.326 Y22.260
X75.301 Y22.260
X75.301 Y22.286
X75.276 Y22.286
X75.276 Y22.311
X75.250 Y22.311
X75.250 Y22.336
X75.225 Y22.336
X75.225 Y22.387
X75.199 Y22.387
X75.199 Y22.413
X75.174 Y22.413
X75.174 Y22.438
X75.148 Y22.438
X75.148 Y22.489
X75.123 Y22.489
X75.123 Y22.514
X75.098 Y22.514
X75.098 Y22.540
X75.072 Y22.540
X75.072 Y22.565
X75.047 Y22.565
X75.047 Y22.616
X75.022 Y22.616
X75.022 Y22.641
X74.996 Y22.641
X74.996 Y22.667
X74.971 Y22.667
X74.971 Y22.717
X74.945 Y22.717
X74.945 Y22.743
X74.920 Y22.743
X74.920 Y22.768
X74.895 Y22.768
X74.895 Y22.794
X74.869 Y22.794
X74.869 Y22.844
X74.844 Y22.844
X74.844 Y22.870
X74.818 Y22.870
X74.818 Y22.895
X74.793 Y22.895
X74.793 Y22.946
X74.767 Y22.946
X74.767 Y22.971
X74.742 Y22.971
X74.742 Y22.997
X74.717 Y22.997
X74.717 Y23.022
X74.691 Y23.022
X74.691 Y23.073
X74.666 Y23.073
X74.666 Y23.098
X74.641 Y23.098
X74.641 Y23.124
X74.615 Y23.124
X74.615 Y23.175
X74.590 Y23.175
X74.590 Y23.200
X74.564 Y23.200
X74.564 Y23.225
X74.539 Y23.225
X74.539 Y23.251
X74.514 Y23.251
X74.514 Y23.302
X74.488 Y23.302
X74.488 Y23.327
X74.463 Y23.327
X74.463 Y23.352
X74.437 Y23.352
X74.437 Y23.403
X74.412 Y23.403
X74.412 Y23.429
X74.386 Y23.429
X74.386 Y23.434
X74.850 Y23.434
X74.850 Y23.409
X74.875 Y23.409
X74.875 Y23.384
X74.900 Y23.384
X74.900 Y23.282
X74.926 Y23.282
X74.926 Y23.231
X74.951 Y23.231
X74.951 Y23.206
X74.977 Y23.206
X74.977 Y23.180
X75.377 Y23.180
X75.377 Y23.206
X75.403 Y23.206
X75.403 Y23.231
X75.428 Y23.231
X75.428 Y23.257
X75.453 Y23.257
X75.453 Y23.708
X75.428 Y23.708
X75.428 Y23.759
X75.403 Y23.759
X75.403 Y23.810
X75.377 Y23.810
X75.377 Y23.835
X75.352 Y23.835
X75.352 Y23.860
X75.326 Y23.860
X75.326 Y23.886
X75.301 Y23.886
X75.301 Y23.911
X75.276 Y23.911
X75.276 Y23.937
X75.225 Y23.937
X75.225 Y23.962
X75.148 Y23.962
X75.148 Y23.987
X73.910 Y23.987
G0 Z3.000
G0  X76.196 Y23.352
G0  Z3.000
G01 F400 Z0
G01 F400 Z-0.100
G01F400X76.196 Y23.327
X76.120 Y23.327
X76.120 Y23.302
X76.094 Y23.302
X76.094 Y23.276
X76.069 Y23.276
X76.069 Y23.200
X76.043 Y23.200
X76.043 Y22.926
X76.069 Y22.926
X76.069 Y22.850
X76.094 Y22.850
X76.094 Y22.825
X76.120 Y22.825
X76.120 Y22.799
X76.170 Y22.799
X76.170 Y22.774
X76.526 Y22.774
X76.526 Y21.905
X76.145 Y21.905
X76.145 Y21.879
X76.120 Y21.879
X76.120 Y21.854
X76.094 Y21.854
X76.094 Y21.828
X76.069 Y21.828
X76.069 Y21.778
X76.043 Y21.778
X76.043 Y21.479
X76.069 Y21.479
X76.069 Y21.428
X76.094 Y21.428
X76.094 Y21.377
X76.145 Y21.377
X76.145 Y21.352
X77.434 Y21.352
X77.434 Y21.377
X77.485 Y21.377
X77.485 Y21.402
X77.511 Y21.402
X77.511 Y21.453
X77.536 Y21.453
X77.536 Y21.803
X77.511 Y21.803
X77.511 Y21.828
X77.485 Y21.828
X77.485 Y21.854
X77.460 Y21.854
X77.460 Y21.879
X77.434 Y21.879
X77.434 Y21.905
X77.079 Y21.905
X77.079 Y23.225
X77.053 Y23.225
X77.053 Y23.276
X77.028 Y23.276
X77.028 Y23.302
X77.003 Y23.302
X77.003 Y23.327
X76.927 Y23.327
X76.927 Y23.352
X76.196 Y23.352
G0 Z3.000
G0  X78.685 Y23.352
G0  Z3.000
G01 F400 Z0
G01 F400 Z-0.100
G01F400X78.685 Y23.327
X78.532 Y23.327
X78.532 Y23.302
X78.482 Y23.302
X78.482 Y23.276
X78.456 Y23.276
X78.456 Y23.251
X78.406 Y23.251
X78.406 Y23.225
X78.380 Y23.225
X78.380 Y23.200
X78.355 Y23.200
X78.355 Y23.175
X78.329 Y23.175
X78.329 Y23.149
X78.304 Y23.149
X78.304 Y23.124
X78.253 Y23.124
X78.253 Y23.073
X78.228 Y23.073
X78.228 Y23.048
X78.202 Y23.048
X78.202 Y23.022
X78.177 Y23.022
X78.177 Y22.971
X78.151 Y22.971
X78.151 Y22.895
X78.126 Y22.895
X78.126 Y21.936
X78.151 Y21.936
X78.151 Y21.860
X78.177 Y21.860
X78.177 Y21.809
X78.202 Y21.809
X78.202 Y21.758
X78.228 Y21.758
X78.228 Y21.733
X78.253 Y21.733
X78.253 Y21.707
X78.279 Y21.707
X78.279 Y21.682
X78.304 Y21.682
X78.304 Y21.656
X78.329 Y21.656
X78.329 Y21.631
X78.355 Y21.631
X78.355 Y21.606
X78.406 Y21.606
X78.406 Y21.580
X78.431 Y21.580
X78.431 Y21.555
X78.456 Y21.555
X78.456 Y21.529
X78.507 Y21.529
X78.507 Y21.504
X78.583 Y21.504
X78.583 Y21.479
X79.289 Y21.479
X79.289 Y21.504
X79.345 Y21.504
X79.345 Y21.422
X79.320 Y21.422
X79.320 Y21.397
X79.294 Y21.397
X79.294 Y21.371
X79.269 Y21.371
X79.269 Y21.346
X79.244 Y21.346
X79.244 Y21.320
X79.218 Y21.320
X79.218 Y21.295
X79.168 Y21.295
X79.168 Y21.270
X79.117 Y21.270
X79.117 Y21.244
X78.355 Y21.244
X78.355 Y21.219
X78.329 Y21.219
X78.329 Y21.193
X78.304 Y21.193
X78.304 Y21.143
X78.279 Y21.143
X78.279 Y20.793
X78.304 Y20.793
X78.304 Y20.742
X78.329 Y20.742
X78.329 Y20.717
X78.380 Y20.717
X78.380 Y20.691
X79.441 Y20.691
X79.441 Y20.717
X79.517 Y20.717
X79.517 Y20.742
X79.568 Y20.742
X79.568 Y20.767
X79.594 Y20.767
X79.594 Y20.793
X79.644 Y20.793
X79.644 Y20.818
X79.670 Y20.818
X79.670 Y20.844
X79.695 Y20.844
X79.695 Y20.869
X79.721 Y20.869
X79.721 Y20.894
X79.746 Y20.894
X79.746 Y20.920
X79.771 Y20.920
X79.771 Y20.945
X79.797 Y20.945
X79.797 Y20.971
X79.822 Y20.971
X79.822 Y20.996
X79.848 Y20.996
X79.848 Y21.047
X79.873 Y21.047
X79.873 Y21.098
X79.898 Y21.098
X79.898 Y23.251
X79.873 Y23.251
X79.873 Y23.302
X79.822 Y23.302
X79.822 Y23.327
X79.771 Y23.327
X79.771 Y23.352
X79.498 Y23.352
X79.498 Y23.327
X79.422 Y23.327
X79.422 Y23.302
X79.396 Y23.302
X79.396 Y23.276
X79.390 Y23.276
X79.390 Y23.302
X79.340 Y23.302
X79.340 Y23.327
X79.213 Y23.327
X79.213 Y23.352
X78.685 Y23.352
G0 Z3.000
G0  X78.882 Y22.774
G0  Z3.000
G01 F400 Z0
G01 F400 Z-0.100
G01F400X79.015 Y22.774
X79.015 Y22.749
X79.041 Y22.749
X79.041 Y22.723
X79.066 Y22.723
X79.066 Y22.698
X79.091 Y22.698
X79.091 Y22.672
X79.117 Y22.672
X79.117 Y22.647
X79.168 Y22.647
X79.168 Y22.622
X79.193 Y22.622
X79.193 Y22.596
X79.218 Y22.596
X79.218 Y22.571
X79.244 Y22.571
X79.244 Y22.545
X79.269 Y22.545
X79.269 Y22.520
X79.294 Y22.520
X79.294 Y22.495
X79.320 Y22.495
X79.320 Y22.469
X79.345 Y22.469
X79.345 Y22.336
X79.320 Y22.336
X79.320 Y22.311
X79.294 Y22.311
X79.294 Y22.286
X79.269 Y22.286
X79.269 Y22.260
X79.244 Y22.260
X79.244 Y22.235
X79.218 Y22.235
X79.218 Y22.209
X79.168 Y22.209
X79.168 Y22.184
X79.142 Y22.184
X79.142 Y22.159
X79.117 Y22.159
X79.117 Y22.133
X79.091 Y22.133
X79.091 Y22.108
X79.066 Y22.108
X79.066 Y22.082
X79.041 Y22.082
X79.041 Y22.057
X78.990 Y22.057
X78.990 Y22.032
X78.882 Y22.032
X78.882 Y22.057
X78.832 Y22.057
X78.832 Y22.082
X78.806 Y22.082
X78.806 Y22.108
X78.781 Y22.108
X78.781 Y22.133
X78.755 Y22.133
X78.755 Y22.159
X78.730 Y22.159
X78.730 Y22.184
X78.705 Y22.184
X78.705 Y22.235
X78.679 Y22.235
X78.679 Y22.571
X78.705 Y22.571
X78.705 Y22.622
X78.730 Y22.622
X78.730 Y22.647
X78.755 Y22.647
X78.755 Y22.672
X78.781 Y22.672
X78.781 Y22.698
X78.806 Y22.698
X78.806 Y22.723
X78.832 Y22.723
X78.832 Y22.749
X78.882 Y22.749
X78.882 Y22.774
G0 Z3.000
G0  X73.376 Y19.771
G0  Z3.000
G01 F400 Z0
G01 F400 Z-0.100
G01F400X73.376 Y19.746
X73.326 Y19.746
X73.326 Y19.720
X73.300 Y19.720
X73.300 Y19.695
X73.275 Y19.695
X73.275 Y19.669
X73.249 Y19.669
X73.249 Y19.593
X73.224 Y19.593
X73.224 Y19.066
X73.249 Y19.066
X73.249 Y18.989
X73.275 Y18.989
X73.275 Y18.964
X73.300 Y18.964
X73.300 Y18.939
X73.326 Y18.939
X73.326 Y18.913
X73.351 Y18.913
X73.351 Y18.888
X73.427 Y18.888
X73.427 Y18.862
X75.555 Y18.862
X75.555 Y18.888
X75.631 Y18.888
X75.631 Y18.913
X75.657 Y18.913
X75.657 Y18.939
X75.682 Y18.939
X75.682 Y18.964
X75.707 Y18.964
X75.707 Y18.989
X75.733 Y18.989
X75.733 Y19.040
X75.758 Y19.040
X75.758 Y19.619
X75.733 Y19.619
X75.733 Y19.669
X75.707 Y19.669
X75.707 Y19.695
X75.682 Y19.695
X75.682 Y19.720
X75.657 Y19.720
X75.657 Y19.746
X75.606 Y19.746
X75.606 Y19.771
X73.376 Y19.771
G0 Z3.000
G0  X15.668 Y19.669
G0  Z3.000
G01 F400 Z0
G01 F400 Z-0.100
G01F400X15.668 Y19.644
X15.617 Y19.644
X15.617 Y19.619
X15.591 Y19.619
X15.591 Y19.542
X15.566 Y19.542
X15.566 Y18.735
X15.591 Y18.735
X15.591 Y18.634
X15.617 Y18.634
X15.617 Y18.583
X15.642 Y18.583
X15.642 Y18.532
X15.668 Y18.532
X15.668 Y18.507
X15.693 Y18.507
X15.693 Y18.481
X15.718 Y18.481
X15.718 Y18.456
X15.744 Y18.456
X15.744 Y18.431
X15.795 Y18.431
X15.795 Y18.405
X15.845 Y18.405
X15.845 Y18.380
X15.896 Y18.380
X15.896 Y18.354
X15.947 Y18.354
X15.947 Y18.329
X15.998 Y18.329
X15.998 Y18.304
X16.049 Y18.304
X16.049 Y18.278
X16.099 Y18.278
X16.099 Y18.253
X16.150 Y18.253
X16.150 Y18.227
X16.201 Y18.227
X16.201 Y18.202
X16.252 Y18.202
X16.252 Y18.177
X16.303 Y18.177
X16.303 Y18.151
X16.353 Y18.151
X16.353 Y18.126
X16.430 Y18.126
X16.430 Y18.100
X16.506 Y18.100
X16.506 Y18.075
X16.983 Y18.075
X16.983 Y18.100
X17.084 Y18.100
X17.084 Y18.126
X17.135 Y18.126
X17.135 Y18.151
X17.186 Y18.151
X17.186 Y18.177
X17.236 Y18.177
X17.236 Y18.202
X17.313 Y18.202
X17.313 Y18.227
X17.364 Y18.227
X17.364 Y18.253
X17.414 Y18.253
X17.414 Y18.278
X17.465 Y18.278
X17.465 Y18.304
X17.491 Y18.304
X17.491 Y18.329
X17.541 Y18.329
X17.541 Y18.354
X17.592 Y18.354
X17.592 Y18.380
X17.643 Y18.380
X17.643 Y18.405
X17.694 Y18.405
X17.694 Y18.431
X17.745 Y18.431
X17.745 Y18.456
X17.770 Y18.456
X17.770 Y18.481
X17.795 Y18.481
X17.795 Y18.507
X17.821 Y18.507
X17.821 Y18.532
X17.846 Y18.532
X17.846 Y18.558
X17.872 Y18.558
X17.872 Y18.608
X17.897 Y18.608
X17.897 Y18.685
X17.922 Y18.685
X17.922 Y19.593
X17.897 Y19.593
X17.897 Y19.619
X17.872 Y19.619
X17.872 Y19.644
X17.821 Y19.644
X17.821 Y19.669
X17.496 Y19.669
X17.496 Y19.644
X17.445 Y19.644
X17.445 Y19.619
X17.420 Y19.619
X17.420 Y19.542
X17.395 Y19.542
X17.395 Y18.958
X17.369 Y18.958
X17.369 Y18.933
X17.344 Y18.933
X17.344 Y18.907
X17.293 Y18.907
X17.293 Y18.882
X17.242 Y18.882
X17.242 Y18.857
X17.192 Y18.857
X17.192 Y18.831
X17.141 Y18.831
X17.141 Y18.806
X17.090 Y18.806
X17.090 Y18.780
X17.039 Y18.780
X17.039 Y18.755
X16.988 Y18.755
X16.988 Y18.730
X16.938 Y18.730
X16.938 Y18.704
X16.887 Y18.704
X16.887 Y18.679
X16.836 Y18.679
X16.836 Y18.653
X16.785 Y18.653
X16.785 Y18.628
X16.703 Y18.628
X16.703 Y18.653
X16.652 Y18.653
X16.652 Y18.679
X16.602 Y18.679
X16.602 Y18.704
X16.551 Y18.704
X16.551 Y18.730
X16.500 Y18.730
X16.500 Y18.755
X16.449 Y18.755
X16.449 Y18.780
X16.398 Y18.780
X16.398 Y18.806
X16.348 Y18.806
X16.348 Y18.831
X16.297 Y18.831
X16.297 Y18.857
X16.246 Y18.857
X16.246 Y18.882
X16.195 Y18.882
X16.195 Y18.907
X16.144 Y18.907
X16.144 Y18.933
X16.119 Y18.933
X16.119 Y18.984
X16.094 Y18.984
X16.094 Y19.593
X16.068 Y19.593
X16.068 Y19.619
X16.043 Y19.619
X16.043 Y19.644
X16.017 Y19.644
X16.017 Y19.669
X15.668 Y19.669
G0 Z3.000
G0  X19.182 Y19.323
G0  Z3.000
G01 F400 Z0
G01 F400 Z-0.100
G01F400X19.032 Y19.291
X18.892 Y19.229
X18.767 Y19.139
X18.665 Y19.024
X18.588 Y18.892
X18.540 Y18.745
X18.525 Y18.599
X18.525 Y13.329
X18.540 Y13.182
X18.551 Y13.150
X18.512 Y13.123
X18.356 Y12.949
X18.240 Y12.747
X18.168 Y12.526
X18.143 Y12.294
X18.168 Y12.062
X18.240 Y11.840
X18.356 Y11.638
X18.512 Y11.465
X18.701 Y11.328
X18.914 Y11.233
X19.142 Y11.184
X19.375 Y11.184
X19.603 Y11.233
X19.816 Y11.328
X20.005 Y11.465
X20.161 Y11.638
X20.278 Y11.840
X20.350 Y12.062
X20.374 Y12.294
X20.350 Y12.526
X20.278 Y12.747
X20.161 Y12.949
X20.005 Y13.123
X19.967 Y13.150
X19.977 Y13.182
X19.992 Y13.329
X19.992 Y17.862
X47.688 Y17.862
X47.735 Y8.274
X47.750 Y8.128
X47.762 Y8.093
X47.711 Y8.055
X47.552 Y7.879
X47.434 Y7.674
X47.361 Y7.449
X47.336 Y7.214
X47.361 Y6.978
X47.434 Y6.753
X47.552 Y6.548
X47.711 Y6.372
X47.902 Y6.233
X48.119 Y6.136
X48.350 Y6.087
X48.587 Y6.087
X48.819 Y6.136
X49.035 Y6.233
X49.227 Y6.372
X49.385 Y6.548
X49.504 Y6.753
X49.577 Y6.978
X49.602 Y7.214
X49.577 Y7.449
X49.504 Y7.674
X49.385 Y7.879
X49.227 Y8.055
X49.176 Y8.093
X49.187 Y8.128
X49.202 Y8.274
X49.152 Y18.600
X49.136 Y18.745
X49.089 Y18.892
X49.012 Y19.024
X48.909 Y19.139
X48.785 Y19.229
X48.645 Y19.291
X48.495 Y19.323
X19.182 Y19.323
G0 Z3.000
G0  X15.642 Y17.714
G0  Z3.000
G01 F400 Z0
G01 F400 Z-0.100
G01F400X15.642 Y17.688
X15.617 Y17.688
X15.617 Y17.663
X15.591 Y17.663
X15.591 Y17.612
X15.566 Y17.612
X15.566 Y17.313
X15.591 Y17.313
X15.591 Y17.262
X15.617 Y17.262
X15.617 Y17.237
X15.642 Y17.237
X15.642 Y17.211
X15.668 Y17.211
X15.668 Y17.186
X15.718 Y17.186
X15.718 Y17.161
X15.769 Y17.161
X15.769 Y17.135
X15.795 Y17.135
X15.795 Y17.110
X15.845 Y17.110
X15.845 Y17.084
X15.896 Y17.084
X15.896 Y17.059
X15.921 Y17.059
X15.921 Y17.034
X15.972 Y17.034
X15.972 Y17.008
X16.023 Y17.008
X16.023 Y16.983
X16.074 Y16.983
X16.074 Y16.957
X16.099 Y16.957
X16.099 Y16.932
X16.150 Y16.932
X16.150 Y16.907
X16.201 Y16.907
X16.201 Y16.881
X16.226 Y16.881
X16.226 Y16.856
X16.277 Y16.856
X16.277 Y16.830
X16.328 Y16.830
X16.328 Y16.805
X16.379 Y16.805
X16.379 Y16.780
X16.404 Y16.780
X16.404 Y16.754
X16.455 Y16.754
X16.455 Y16.729
X16.506 Y16.729
X16.506 Y16.703
X16.531 Y16.703
X16.531 Y16.678
X16.582 Y16.678
X16.582 Y16.653
X16.633 Y16.653
X16.633 Y16.627
X16.684 Y16.627
X16.684 Y16.602
X16.709 Y16.602
X16.709 Y16.576
X16.760 Y16.576
X16.760 Y16.551
X16.811 Y16.551
X16.811 Y16.526
X16.836 Y16.526
X16.836 Y16.500
X16.887 Y16.500
X16.887 Y16.475
X16.938 Y16.475
X16.938 Y16.449
X16.963 Y16.449
X16.963 Y16.424
X17.014 Y16.424
X17.014 Y16.399
X17.065 Y16.399
X17.065 Y16.373
X17.115 Y16.373
X17.115 Y16.348
X17.141 Y16.348
X17.141 Y16.322
X17.192 Y16.322
X17.192 Y16.297
X17.242 Y16.297
X17.242 Y16.272
X17.268 Y16.272
X17.268 Y16.246
X17.319 Y16.246
X17.319 Y16.221
X17.369 Y16.221
X17.369 Y16.195
X17.420 Y16.195
X17.420 Y16.170
X17.445 Y16.170
X17.445 Y16.145
X17.872 Y16.145
X17.872 Y16.170
X17.897 Y16.170
X17.897 Y16.221
X17.922 Y16.221
X17.922 Y16.571
X17.897 Y16.571
X17.897 Y16.621
X17.846 Y16.621
X17.846 Y16.647
X17.821 Y16.647
X17.821 Y16.672
X17.770 Y16.672
X17.770 Y16.698
X17.719 Y16.698
X17.719 Y16.723
X17.668 Y16.723
X17.668 Y16.748
X17.643 Y16.748
X17.643 Y16.774
X17.592 Y16.774
X17.592 Y16.799
X17.541 Y16.799
X17.541 Y16.825
X17.516 Y16.825
X17.516 Y16.850
X17.465 Y16.850
X17.465 Y16.875
X17.414 Y16.875
X17.414 Y16.901
X17.364 Y16.901
X17.364 Y16.926
X17.338 Y16.926
X17.338 Y16.952
X17.287 Y16.952
X17.287 Y16.977
X17.236 Y16.977
X17.236 Y17.002
X17.211 Y17.002
X17.211 Y17.028
X17.160 Y17.028
X17.160 Y17.053
X17.110 Y17.053
X17.110 Y17.079
X17.059 Y17.079
X17.059 Y17.104
X17.033 Y17.104
X17.033 Y17.129
X16.983 Y17.129
X16.983 Y17.155
X16.932 Y17.155
X16.932 Y17.180
X16.906 Y17.180
X16.906 Y17.206
X16.855 Y17.206
X16.855 Y17.231
X16.805 Y17.231
X16.805 Y17.256
X16.779 Y17.256
X16.779 Y17.282
X16.729 Y17.282
X16.729 Y17.307
X16.678 Y17.307
X16.678 Y17.333
X16.627 Y17.333
X16.627 Y17.358
X16.602 Y17.358
X16.602 Y17.383
X16.551 Y17.383
X16.551 Y17.409
X16.500 Y17.409
X16.500 Y17.434
X16.474 Y17.434
X16.474 Y17.460
X16.424 Y17.460
X16.424 Y17.485
X16.373 Y17.485
X16.373 Y17.510
X16.322 Y17.510
X16.322 Y17.536
X16.297 Y17.536
X16.297 Y17.561
X16.246 Y17.561
X16.246 Y17.587
X16.195 Y17.587
X16.195 Y17.612
X16.170 Y17.612
X16.170 Y17.637
X16.119 Y17.637
X16.119 Y17.663
X16.068 Y17.663
X16.068 Y17.688
X16.017 Y17.688
X16.017 Y17.714
X15.642 Y17.714
G0 Z3.000
G0  X22.170 Y17.434
G0  Z3.000
G01 F400 Z0
G01 F400 Z-0.100
G01F400X22.170 Y14.900
X22.195 Y14.900
X22.195 Y14.849
X22.221 Y14.849
X22.221 Y14.824
X22.246 Y14.824
X22.246 Y14.798
X22.647 Y14.798
X22.647 Y14.824
X22.672 Y14.824
X22.672 Y14.849
X22.698 Y14.849
X22.698 Y14.875
X22.723 Y14.875
X22.723 Y16.424
X22.729 Y16.424
X22.729 Y16.399
X22.754 Y16.399
X22.754 Y16.348
X22.780 Y16.348
X22.780 Y16.195
X22.805 Y16.195
X22.805 Y16.145
X22.856 Y16.145
X22.856 Y16.119
X22.881 Y16.119
X22.881 Y16.094
X23.231 Y16.094
X23.231 Y16.119
X23.282 Y16.119
X23.282 Y16.145
X23.307 Y16.145
X23.307 Y16.195
X23.332 Y16.195
X23.332 Y16.348
X23.358 Y16.348
X23.358 Y16.373
X23.383 Y16.373
X23.383 Y16.424
X23.389 Y16.424
X23.389 Y14.900
X23.415 Y14.900
X23.415 Y14.849
X23.440 Y14.849
X23.440 Y14.824
X23.491 Y14.824
X23.491 Y14.798
X23.866 Y14.798
X23.866 Y14.824
X23.891 Y14.824
X23.891 Y14.849
X23.917 Y14.849
X23.917 Y14.875
X23.942 Y14.875
X23.942 Y17.434
X23.288 Y17.434
X23.288 Y17.383
X23.262 Y17.383
X23.262 Y17.358
X23.237 Y17.358
X23.237 Y17.307
X23.211 Y17.307
X23.211 Y17.282
X23.186 Y17.282
X23.186 Y17.256
X23.161 Y17.256
X23.161 Y17.206
X23.135 Y17.206
X23.135 Y17.180
X23.110 Y17.180
X23.110 Y17.129
X23.084 Y17.129
X23.084 Y17.104
X23.059 Y17.104
X23.059 Y17.079
X23.053 Y17.079
X23.053 Y17.104
X23.028 Y17.104
X23.028 Y17.155
X23.002 Y17.155
X23.002 Y17.180
X22.977 Y17.180
X22.977 Y17.206
X22.951 Y17.206
X22.951 Y17.256
X22.926 Y17.256
X22.926 Y17.282
X22.901 Y17.282
X22.901 Y17.333
X22.875 Y17.333
X22.875 Y17.358
X22.850 Y17.358
X22.850 Y17.409
X22.825 Y17.409
X22.825 Y17.434
X22.170 Y17.434
G0 Z3.000
G0  X36.800 Y17.434
G0  Z3.000
G01 F400 Z0
G01 F400 Z-0.100
G01F400X36.800 Y17.409
X36.775 Y17.409
X36.775 Y17.383
X36.750 Y17.383
X36.750 Y17.333
X36.724 Y17.333
X36.724 Y17.282
X36.699 Y17.282
X36.699 Y17.256
X36.673 Y17.256
X36.673 Y17.206
X36.648 Y17.206
X36.648 Y17.155
X36.623 Y17.155
X36.623 Y17.129
X36.597 Y17.129
X36.597 Y17.079
X36.572 Y17.079
X36.572 Y17.028
X36.546 Y17.028
X36.546 Y16.977
X36.521 Y16.977
X36.521 Y16.952
X36.495 Y16.952
X36.495 Y16.901
X36.470 Y16.901
X36.470 Y16.850
X36.445 Y16.850
X36.445 Y16.825
X36.419 Y16.825
X36.419 Y16.774
X36.394 Y16.774
X36.394 Y16.723
X36.369 Y16.723
X36.369 Y16.672
X36.343 Y16.672
X36.343 Y16.647
X36.318 Y16.647
X36.318 Y16.596
X36.292 Y16.596
X36.292 Y16.545
X36.267 Y16.545
X36.267 Y16.520
X36.242 Y16.520
X36.242 Y16.469
X36.216 Y16.469
X36.216 Y16.418
X36.191 Y16.418
X36.191 Y16.367
X36.165 Y16.367
X36.165 Y16.342
X36.140 Y16.342
X36.140 Y16.291
X36.114 Y16.291
X36.114 Y16.240
X36.089 Y16.240
X36.089 Y16.215
X36.064 Y16.215
X36.064 Y16.164
X36.038 Y16.164
X36.038 Y16.113
X36.013 Y16.113
X36.013 Y16.063
X35.988 Y16.063
X35.988 Y16.037
X35.962 Y16.037
X35.962 Y15.986
X35.937 Y15.986
X35.937 Y15.936
X35.911 Y15.936
X35.911 Y15.910
X35.886 Y15.910
X35.886 Y15.859
X35.861 Y15.859
X35.861 Y15.809
X35.835 Y15.809
X35.835 Y15.783
X35.810 Y15.783
X35.810 Y15.732
X35.784 Y15.732
X35.784 Y15.682
X35.759 Y15.682
X35.759 Y15.631
X35.733 Y15.631
X35.733 Y15.605
X35.708 Y15.605
X35.708 Y15.555
X35.683 Y15.555
X35.683 Y15.504
X35.657 Y15.504
X35.657 Y15.478
X35.632 Y15.478
X35.632 Y15.428
X35.607 Y15.428
X35.607 Y15.377
X35.581 Y15.377
X35.581 Y15.326
X35.556 Y15.326
X35.556 Y15.301
X35.530 Y15.301
X35.530 Y15.224
X35.505 Y15.224
X35.505 Y14.925
X35.530 Y14.925
X35.530 Y14.875
X35.556 Y14.875
X35.556 Y14.824
X35.607 Y14.824
X35.607 Y14.798
X35.982 Y14.798
X35.982 Y14.824
X36.032 Y14.824
X36.032 Y14.875
X36.058 Y14.875
X36.058 Y14.900
X36.083 Y14.900
X36.083 Y14.951
X36.109 Y14.951
X36.109 Y15.002
X36.134 Y15.002
X36.134 Y15.027
X36.160 Y15.027
X36.160 Y15.078
X36.185 Y15.078
X36.185 Y15.129
X36.210 Y15.129
X36.210 Y15.154
X36.236 Y15.154
X36.236 Y15.205
X36.261 Y15.205
X36.261 Y15.256
X36.287 Y15.256
X36.287 Y15.281
X36.312 Y15.281
X36.312 Y15.332
X36.337 Y15.332
X36.337 Y15.383
X36.363 Y15.383
X36.363 Y15.433
X36.388 Y15.433
X36.388 Y15.459
X36.413 Y15.459
X36.413 Y15.510
X36.439 Y15.510
X36.439 Y15.560
X36.464 Y15.560
X36.464 Y15.586
X36.490 Y15.586
X36.490 Y15.637
X36.515 Y15.637
X36.515 Y15.687
X36.541 Y15.687
X36.541 Y15.738
X36.566 Y15.738
X36.566 Y15.764
X36.591 Y15.764
X36.591 Y15.814
X36.617 Y15.814
X36.617 Y15.865
X36.642 Y15.865
X36.642 Y15.891
X36.668 Y15.891
X36.668 Y15.941
X36.693 Y15.941
X36.693 Y15.992
X36.718 Y15.992
X36.718 Y16.043
X36.744 Y16.043
X36.744 Y16.068
X36.769 Y16.068
X36.769 Y16.119
X36.794 Y16.119
X36.794 Y16.170
X36.820 Y16.170
X36.820 Y16.195
X36.845 Y16.195
X36.845 Y16.246
X36.871 Y16.246
X36.871 Y16.297
X36.896 Y16.297
X36.896 Y16.348
X36.922 Y16.348
X36.922 Y16.373
X36.947 Y16.373
X36.947 Y16.424
X36.972 Y16.424
X36.972 Y16.475
X36.998 Y16.475
X36.998 Y16.500
X37.023 Y16.500
X37.023 Y16.551
X37.049 Y16.551
X37.049 Y16.602
X37.074 Y16.602
X37.074 Y16.653
X37.099 Y16.653
X37.099 Y16.678
X37.125 Y16.678
X37.125 Y16.729
X37.150 Y16.729
X37.150 Y16.780
X37.175 Y16.780
X37.175 Y16.805
X37.201 Y16.805
X37.201 Y16.856
X37.226 Y16.856
X37.226 Y16.907
X37.252 Y16.907
X37.252 Y16.932
X37.277 Y16.932
X37.277 Y17.008
X37.303 Y17.008
X37.303 Y17.333
X37.277 Y17.333
X37.277 Y17.383
X37.252 Y17.383
X37.252 Y17.409
X37.226 Y17.409
X37.226 Y17.434
X36.800 Y17.434
G0 Z3.000
G0  X33.524 Y17.434
G0  Z3.000
G01 F400 Z0
G01 F400 Z-0.100
G01F400X33.524 Y17.409
X33.498 Y17.409
X33.498 Y17.383
X33.473 Y17.383
X33.473 Y17.358
X33.448 Y17.358
X33.448 Y16.983
X33.473 Y16.983
X33.473 Y16.932
X33.498 Y16.932
X33.498 Y16.907
X33.549 Y16.907
X33.549 Y16.881
X33.905 Y16.881
X33.905 Y15.351
X33.524 Y15.351
X33.524 Y15.326
X33.498 Y15.326
X33.498 Y15.301
X33.473 Y15.301
X33.473 Y15.275
X33.448 Y15.275
X33.448 Y14.875
X33.473 Y14.875
X33.473 Y14.849
X33.498 Y14.849
X33.498 Y14.824
X33.524 Y14.824
X33.524 Y14.798
X34.839 Y14.798
X34.839 Y14.824
X34.864 Y14.824
X34.864 Y14.849
X34.889 Y14.849
X34.889 Y14.875
X34.915 Y14.875
X34.915 Y15.275
X34.889 Y15.275
X34.889 Y15.301
X34.864 Y15.301
X34.864 Y15.326
X34.813 Y15.326
X34.813 Y15.351
X34.458 Y15.351
X34.458 Y17.358
X34.432 Y17.358
X34.432 Y17.383
X34.407 Y17.383
X34.407 Y17.409
X34.382 Y17.409
X34.382 Y17.434
X33.524 Y17.434
G0 Z3.000
G0  X38.426 Y17.434
G0  Z3.000
G01 F400 Z0
G01 F400 Z-0.100
G01F400X38.426 Y17.409
X38.401 Y17.409
X38.401 Y17.383
X38.375 Y17.383
X38.375 Y17.358
X38.350 Y17.358
X38.350 Y17.282
X38.324 Y17.282
X38.324 Y17.180
X38.299 Y17.180
X38.299 Y17.104
X38.273 Y17.104
X38.273 Y17.002
X38.248 Y17.002
X38.248 Y16.926
X38.223 Y16.926
X38.223 Y16.850
X38.197 Y16.850
X38.197 Y16.748
X38.172 Y16.748
X38.172 Y16.672
X38.147 Y16.672
X38.147 Y16.571
X38.121 Y16.571
X38.121 Y16.494
X38.096 Y16.494
X38.096 Y16.393
X38.070 Y16.393
X38.070 Y16.317
X38.045 Y16.317
X38.045 Y16.240
X38.020 Y16.240
X38.020 Y16.139
X37.994 Y16.139
X37.994 Y16.063
X37.969 Y16.063
X37.969 Y15.961
X37.943 Y15.961
