( Generated by Carbide Copper )
( Material Size )
( X= 120.000, Y= 90.000, Z= 2.000 )
()
G17
G21
G54
G90
M05
(  )
( Drilling )
M03 S10000
G00 X2.746 Y3.399
G0  Z3.000
G01 F240.0 Z-2.200
G00 Z3.000
G00 X94.186 Y56.739
G0  Z3.000
G01 F240.0 Z-2.200
G00 Z3.000
G00 X4.016 Y56.739
G0  Z3.000
G01 F240.0 Z-2.200
G00 Z3.000
G00 X95.456 Y3.399
G0  Z3.000
G01 F240.0 Z-2.200
G00 Z3.000
G00 X86.566 Y16.198
G0  Z3.000
G01 F240.0 Z-2.200
G00 Z3.000
G00 X86.566 Y23.767
G0  Z3.000
G01 F240.0 Z-2.200
G00 Z3.000
G00 X10.366 Y52.929
G0  Z3.000
G01 F240.0 Z-2.200
G00 Z3.000
G00 X15.446 Y52.929
G0  Z3.000
G01 F240.0 Z-2.200
G00 Z3.000
G00 X20.526 Y52.929
G0  Z3.000
G01 F240.0 Z-2.200
G00 Z3.000
G00 X45.926 Y7.209
G0  Z3.000
G01 F240.0 Z-2.200
G00 Z3.000
G00 X12.906 Y52.929
G0  Z3.000
G01 F240.0 Z-2.200
G00 Z3.000
G00 X17.986 Y52.929
G0  Z3.000
G01 F240.0 Z-2.200
G00 Z3.000
G00 X76.396 Y52.934
G0  Z3.000
G01 F240.0 Z-2.200
G00 Z3.000
G00 X73.856 Y52.934
G0  Z3.000
G01 F240.0 Z-2.200
G00 Z3.000
G00 X78.936 Y52.934
G0  Z3.000
G01 F240.0 Z-2.200
G00 Z3.000
G00 X39.576 Y7.209
G0  Z3.000
G01 F240.0 Z-2.200
G00 Z3.000
G00 X34.496 Y7.209
G0  Z3.000
G01 F240.0 Z-2.200
G00 Z3.000
G00 X29.416 Y7.209
G0  Z3.000
G01 F240.0 Z-2.200
G00 Z3.000
G00 X24.336 Y7.209
G0  Z3.000
G01 F240.0 Z-2.200
G00 Z3.000
G00 X73.866 Y7.209
G0  Z3.000
G01 F240.0 Z-2.200
G00 Z3.000
G00 X37.036 Y7.209
G0  Z3.000
G01 F240.0 Z-2.200
G00 Z3.000
G00 X31.956 Y7.209
G0  Z3.000
G01 F240.0 Z-2.200
G00 Z3.000
G00 X26.876 Y7.209
G0  Z3.000
G01 F240.0 Z-2.200
G00 Z3.000
G00 X76.406 Y7.209
G0  Z3.000
G01 F240.0 Z-2.200
G00 Z3.000
G00 X71.316 Y52.934
G0  Z3.000
G01 F240.0 Z-2.200
G00 Z3.000
G00 X91.646 Y8.527
G0  Z3.000
G01 F240.0 Z-2.200
G00 Z3.000
G00 X89.106 Y8.527
G0  Z3.000
G01 F240.0 Z-2.200
G00 Z3.000
G00 X21.796 Y7.209
G0  Z3.000
G01 F240.0 Z-2.200
G00 Z3.000
G00 X30.686 Y52.929
G0  Z3.000
G01 F240.0 Z-2.200
G00 Z3.000
G00 X35.766 Y52.929
G0  Z3.000
G01 F240.0 Z-2.200
G00 Z3.000
G00 X61.166 Y7.209
G0  Z3.000
G01 F240.0 Z-2.200
G00 Z3.000
G00 X71.326 Y7.209
G0  Z3.000
G01 F240.0 Z-2.200
G00 Z3.000
G00 X23.066 Y52.929
G0  Z3.000
G01 F240.0 Z-2.200
G00 Z3.000
G00 X28.146 Y52.929
G0  Z3.000
G01 F240.0 Z-2.200
G00 Z3.000
G00 X33.226 Y52.929
G0  Z3.000
G01 F240.0 Z-2.200
G00 Z3.000
G00 X38.306 Y52.929
G0  Z3.000
G01 F240.0 Z-2.200
G00 Z3.000
G00 X63.706 Y7.209
G0  Z3.000
G01 F240.0 Z-2.200
G00 Z3.000
G00 X58.626 Y7.209
G0  Z3.000
G01 F240.0 Z-2.200
G00 Z3.000
G00 X48.466 Y7.209
G0  Z3.000
G01 F240.0 Z-2.200
G00 Z3.000
G00 X25.606 Y52.929
G0  Z3.000
G01 F240.0 Z-2.200
G00 Z3.000
G00 X51.006 Y7.209
G0  Z3.000
G01 F240.0 Z-2.200
G00 Z3.000
G00 X24.336 Y35.149
G0  Z3.000
G01 F240.0 Z-2.200
G00 Z3.000
G00 X16.716 Y35.149
G0  Z3.000
G01 F240.0 Z-2.200
G00 Z3.000
G00 X26.876 Y35.149
G0  Z3.000
G01 F240.0 Z-2.200
G00 Z3.000
G00 X91.646 Y40.277
G0  Z3.000
G01 F240.0 Z-2.200
G00 Z3.000
G00 X19.256 Y35.149
G0  Z3.000
G01 F240.0 Z-2.200
G00 Z3.000
G00 X42.109 Y12.299
G0  Z3.000
G01 F240.0 Z-2.200
G00 Z3.000
G00 X34.496 Y35.149
G0  Z3.000
G01 F240.0 Z-2.200
G00 Z3.000
G00 X37.036 Y35.149
G0  Z3.000
G01 F240.0 Z-2.200
G00 Z3.000
G00 X14.176 Y12.289
G0  Z3.000
G01 F240.0 Z-2.200
G00 Z3.000
G00 X42.116 Y35.149
G0  Z3.000
G01 F240.0 Z-2.200
G00 Z3.000
G00 X29.416 Y12.289
G0  Z3.000
G01 F240.0 Z-2.200
G00 Z3.000
G00 X44.656 Y35.149
G0  Z3.000
G01 F240.0 Z-2.200
G00 Z3.000
G00 X21.796 Y12.289
G0  Z3.000
G01 F240.0 Z-2.200
G00 Z3.000
G00 X31.956 Y12.289
G0  Z3.000
G01 F240.0 Z-2.200
G00 Z3.000
G00 X14.176 Y35.149
G0  Z3.000
G01 F240.0 Z-2.200
G00 Z3.000
G00 X39.576 Y12.289
G0  Z3.000
G01 F240.0 Z-2.200
G00 Z3.000
G00 X89.106 Y40.277
G0  Z3.000
G01 F240.0 Z-2.200
G00 Z3.000
G00 X29.416 Y35.149
G0  Z3.000
G01 F240.0 Z-2.200
G00 Z3.000
G00 X94.186 Y40.277
G0  Z3.000
G01 F240.0 Z-2.200
G00 Z3.000
G00 X21.796 Y35.149
G0  Z3.000
G01 F240.0 Z-2.200
G00 Z3.000
G00 X44.649 Y12.299
G0  Z3.000
G01 F240.0 Z-2.200
G00 Z3.000
G00 X31.956 Y35.149
G0  Z3.000
G01 F240.0 Z-2.200
G00 Z3.000
G00 X24.336 Y12.289
G0  Z3.000
G01 F240.0 Z-2.200
G00 Z3.000
G00 X39.576 Y35.149
G0  Z3.000
G01 F240.0 Z-2.200
G00 Z3.000
G00 X16.716 Y12.289
G0  Z3.000
G01 F240.0 Z-2.200
G00 Z3.000
G00 X26.876 Y12.289
G0  Z3.000
G01 F240.0 Z-2.200
G00 Z3.000
G00 X19.256 Y12.289
G0  Z3.000
G01 F240.0 Z-2.200
G00 Z3.000
G00 X34.496 Y12.289
G0  Z3.000
G01 F240.0 Z-2.200
G00 Z3.000
G00 X37.036 Y12.289
G0  Z3.000
G01 F240.0 Z-2.200
G00 Z3.000
G00 X91.646 Y32.657
G0  Z3.000
G01 F240.0 Z-2.200
G00 Z3.000
G00 X61.166 Y23.719
G0  Z3.000
G01 F240.0 Z-2.200
G00 Z3.000
G00 X89.106 Y32.657
G0  Z3.000
G01 F240.0 Z-2.200
G00 Z3.000
G00 X61.166 Y33.879
G0  Z3.000
G01 F240.0 Z-2.200
G00 Z3.000
G00 X94.186 Y49.167
G0  Z3.000
G01 F240.0 Z-2.200
G00 Z3.000
G00 X56.086 Y35.149
G0  Z3.000
G01 F240.0 Z-2.200
G00 Z3.000
G00 X91.646 Y49.167
G0  Z3.000
G01 F240.0 Z-2.200
G00 Z3.000
G00 X61.166 Y42.769
G0  Z3.000
G01 F240.0 Z-2.200
G00 Z3.000
G00 X6.556 Y49.119
G0  Z3.000
G01 F240.0 Z-2.200
G00 Z3.000
G00 X61.166 Y52.929
G0  Z3.000
G01 F240.0 Z-2.200
G00 Z3.000
G00 X94.186 Y13.607
G0  Z3.000
G01 F240.0 Z-2.200
G00 Z3.000
G00 X94.186 Y26.307
G0  Z3.000
G01 F240.0 Z-2.200
G00 Z3.000
G00 X6.556 Y38.959
G0  Z3.000
G01 F240.0 Z-2.200
G00 Z3.000
G00 X56.086 Y45.309
G0  Z3.000
G01 F240.0 Z-2.200
G00 Z3.000
G00 X47.196 Y52.929
G0  Z3.000
G01 F240.0 Z-2.200
G00 Z3.000
G00 X9.096 Y7.209
G0  Z3.000
G01 F240.0 Z-2.200
G00 Z3.000
G00 X44.656 Y52.929
G0  Z3.000
G01 F240.0 Z-2.200
G00 Z3.000
G00 X6.556 Y7.209
G0  Z3.000
G01 F240.0 Z-2.200
G00 Z3.000
G00 X49.736 Y52.929
G0  Z3.000
G01 F240.0 Z-2.200
G00 Z3.000
G00 X16.716 Y7.209
G0  Z3.000
G01 F240.0 Z-2.200
G00 Z3.000
G00 X14.176 Y7.209
G0  Z3.000
G01 F240.0 Z-2.200
G00 Z3.000
G00 X11.636 Y7.209
G0  Z3.000
G01 F240.0 Z-2.200
G00 Z3.000
G00 X52.276 Y52.929
G0  Z3.000
G01 F240.0 Z-2.200
G00 Z3.000
G00 X71.326 Y22.449
G0  Z3.000
G01 F240.0 Z-2.200
G00 Z3.000
G00 X2.746 Y3.399
G0  Z3.000
G01 F240.0 Z-2.200
G00 Z3.000
G00 X94.186 Y56.739
G0  Z3.000
G01 F240.0 Z-2.200
G00 Z3.000
G00 X71.326 Y24.989
G0  Z3.000
G01 F240.0 Z-2.200
G00 Z3.000
G00 X71.326 Y19.909
G0  Z3.000
G01 F240.0 Z-2.200
G00 Z3.000
G00 X4.016 Y56.739
G0  Z3.000
G01 F240.0 Z-2.200
G00 Z3.000
G00 X95.456 Y3.399
G0  Z3.000
G01 F240.0 Z-2.200
G00 Z3.000
M05
M30
%