( Generated by Carbide Copper )
( Material Size )
( X= 120.000, Y= 90.000, Z= 2.000 )
()
G17
G21
G54
G90
M05
(  )
( Routing )
M03 S10000
G0  X-1.588 Y62.588
G0  Z3.000
G01 F100 Z0
G01 F100 Z-1.000
G01F100X-1.588 Y-1.588
X99.588 Y-1.588
X99.588 Y62.588
X-1.588 Y62.588
G0 Z3.000
M03 S10000
G0  X-1.588 Y62.588
G0  Z3.000
G01 F100 Z0
G01 F100 Z-1.700
G01F100X-1.588 Y-1.588
X99.588 Y-1.588
X99.588 Y62.588
X-1.588 Y62.588
G0 Z3.000
G00 Z3.000
M05
M30
%